;FLAVOR:Marlin
;TIME:4432
;Filament used: 2.62051m
;Layer height: 0.2
;MINX:67.29
;MINY:70.739
;MINZ:0.2
;MAXX:152.711
;MAXY:149.161
;MAXZ:7.2
;Generated with Cura_SteamEngine 4.13.1
M140 S65
M105
M190 S65
M104 S205
M105
M109 S205
M82 ;absolute extrusion mode
; Ender 3 Custom Start G-code
G92 E0 ; Reset Extruder
G28 ; Home all axes
G1 Z2.0 F3000 ; Move Z Axis up little to prevent scratching of Heat Bed
G1 X0.1 Y20 Z0.3 F5000.0 ; Move to start position
G1 X0.1 Y200.0 Z0.3 F1500.0 E15 ; Draw the first line
G1 X0.4 Y200.0 Z0.3 F5000.0 ; Move to side a little
G1 X0.4 Y20 Z0.3 F1500.0 E30 ; Draw the second line
G92 E0 ; Reset Extruder
G1 Z2.0 F3000 ; Move Z Axis up little to prevent scratching of Heat Bed
G1 X5 Y20 Z0.3 F5000.0 ; Move over to prevent blob squish
G92 E0
G92 E0
G1 F1500 E-4
;LAYER_COUNT:36
;LAYER:0
M107
G0 F6000 X71.028 Y74.408 Z0.2
;TYPE:SKIRT
G1 F1500 E0
G1 F1200 X71.715 Y73.769 E0.03121
G1 X72.454 Y73.191 E0.06241
G1 X72.851 Y72.92 E0.0784
G1 X73.135 Y72.735 E0.08967
G1 X74.3 Y72.074 E0.13422
G1 X74.498 Y71.977 E0.14155
G1 X75.357 Y71.6 E0.17276
G1 X76.395 Y71.256 E0.20913
G1 X76.676 Y71.178 E0.21883
G1 X77.589 Y70.966 E0.25
G1 X78.489 Y70.835 E0.28025
G1 X78.741 Y70.809 E0.28868
G1 X79.705 Y70.752 E0.32079
G1 X80.672 Y70.739 E0.35296
G1 X139.396 Y70.739 E2.30613
G1 X139.906 Y70.745 E2.32309
G1 X140.304 Y70.758 E2.33634
G1 X140.921 Y70.789 E2.35688
G1 X141.855 Y70.876 E2.38808
G1 X143.006 Y71.096 E2.42706
G1 X143.253 Y71.157 E2.43552
G1 X144.552 Y71.564 E2.4808
G1 X144.659 Y71.605 E2.48461
G1 X145.841 Y72.14 E2.52776
G1 X146.075 Y72.263 E2.53655
G1 X146.886 Y72.735 E2.56776
G1 X147.434 Y73.109 E2.58983
G1 X147.585 Y73.219 E2.59604
G1 X148.565 Y74.023 E2.6382
G1 X148.719 Y74.165 E2.64517
G1 X149.38 Y74.83 E2.67636
G1 X149.784 Y75.296 E2.69687
G1 X149.935 Y75.481 E2.70481
G1 X150.496 Y76.233 E2.73602
G1 X150.866 Y76.811 E2.75884
G1 X150.988 Y77.016 E2.76678
G1 X151.433 Y77.842 E2.79798
G1 X151.819 Y78.737 E2.8304
G1 X151.92 Y79.003 E2.83987
G1 X152.215 Y79.893 E2.87105
G1 X152.388 Y80.585 E2.89478
G1 X152.431 Y80.784 E2.90155
G1 X152.63 Y82.071 E2.94486
G1 X152.651 Y82.293 E2.95228
G1 X152.694 Y82.957 E2.97441
G1 X152.703 Y83.223 E2.98326
G1 X152.709 Y83.492 E2.99221
G1 X152.711 Y83.706 E2.99933
G1 X152.71 Y136.004 E4.73877
G1 X152.705 Y136.351 E4.75031
G1 X152.693 Y136.731 E4.76295
G1 X152.663 Y137.344 E4.78337
G1 X152.577 Y138.278 E4.81456
G1 X152.4 Y139.253 E4.84752
G1 X152.345 Y139.494 E4.85574
G1 X152.098 Y140.399 E4.88695
G1 X151.779 Y141.268 E4.91773
G1 X151.688 Y141.487 E4.92562
G1 X151.207 Y142.497 E4.96283
G1 X151.147 Y142.608 E4.96703
G1 X150.463 Y143.712 E5.01022
G1 X150.32 Y143.915 E5.01848
G1 X149.747 Y144.658 E5.04969
G1 X149.127 Y145.336 E5.08025
G1 X148.948 Y145.516 E5.08869
G1 X148.259 Y146.153 E5.1199
G1 X147.693 Y146.601 E5.14391
G1 X147.512 Y146.735 E5.1514
G1 X146.345 Y147.49 E5.19763
G1 X146.163 Y147.592 E5.20457
G1 X145.326 Y148.015 E5.23576
G1 X144.526 Y148.34 E5.26448
G1 X144.255 Y148.438 E5.27406
G1 X143.36 Y148.719 E5.30526
G1 X142.604 Y148.894 E5.33107
G1 X142.418 Y148.93 E5.33737
G1 X141.352 Y149.082 E5.37319
G1 X141.138 Y149.102 E5.38034
G1 X140.496 Y149.143 E5.40173
G1 X139.958 Y149.159 E5.41964
G1 X139.641 Y149.161 E5.43018
G1 X127.751 Y149.159 E5.82564
G1 X127.204 Y149.151 E5.84384
G1 X126.867 Y149.141 E5.85505
G1 X125.16 Y149.064 E5.91188
G1 X122.552 Y148.982 E5.99867
G1 X120.028 Y148.974 E6.08262
G1 X117.519 Y149.038 E6.16609
G1 X115.316 Y149.146 E6.23945
G1 X115.011 Y149.155 E6.2496
G1 X114.687 Y149.16 E6.26038
G1 X80.448 Y149.16 E7.39917
G1 X79.742 Y149.15 E7.42266
G1 X79.122 Y149.124 E7.4433
G1 X78.91 Y149.109 E7.45037
G1 X77.978 Y149.003 E7.48157
G1 X77.446 Y148.906 E7.49955
G1 X77.22 Y148.859 E7.50723
G1 X76.311 Y148.629 E7.53842
G1 X75.646 Y148.407 E7.56173
G1 X75.435 Y148.329 E7.56922
G1 X74.153 Y147.759 E7.61588
G1 X73.977 Y147.667 E7.62248
G1 X73.165 Y147.198 E7.65367
G1 X72.717 Y146.897 E7.67162
G1 X72.515 Y146.754 E7.67986
G1 X71.774 Y146.18 E7.71103
G1 X71.232 Y145.691 E7.73531
G1 X71.117 Y145.58 E7.74063
G1 X70.47 Y144.9 E7.77185
G1 X70.141 Y144.504 E7.78897
G1 X69.987 Y144.31 E7.79721
G1 X69.339 Y143.404 E7.83426
G1 X69.2 Y143.187 E7.84283
G1 X68.729 Y142.377 E7.87399
G1 X68.328 Y141.529 E7.90519
G1 X68.142 Y141.058 E7.92203
G1 X68.034 Y140.765 E7.93242
G1 X67.747 Y139.872 E7.96362
G1 X67.54 Y138.972 E7.99433
G1 X67.495 Y138.73 E8.00252
G1 X67.363 Y137.801 E8.03373
G1 X67.327 Y137.332 E8.04937
G1 X67.316 Y137.135 E8.05594
G1 X67.303 Y136.812 E8.06669
G1 X67.294 Y136.471 E8.07803
G1 X67.29 Y136.181 E8.08768
G1 X67.29 Y83.874 E9.82742
G1 X67.3 Y83.188 E9.85024
G1 X67.327 Y82.557 E9.87124
G1 X67.343 Y82.335 E9.87864
G1 X67.451 Y81.404 E9.90982
G1 X67.556 Y80.835 E9.92906
G1 X67.602 Y80.619 E9.93641
G1 X67.837 Y79.711 E9.9676
G1 X68.033 Y79.125 E9.98815
G1 X68.103 Y78.934 E9.99492
G1 X68.663 Y77.662 E10.04115
G1 X68.736 Y77.521 E10.04643
G1 X69.432 Y76.357 E10.09153
G1 X69.624 Y76.077 E10.10283
G1 X70.187 Y75.327 E10.13402
G1 X70.869 Y74.569 E10.16793
G1 X71.028 Y74.408 E10.17546
G0 F6000 X71.313 Y74.689
G1 F1200 X71.988 Y74.062 E10.2061
G1 X73.069 Y73.255 E10.25097
G1 X73.353 Y73.07 E10.26224
G1 X74.476 Y72.433 E10.30518
G1 X74.674 Y72.336 E10.31252
G1 X75.517 Y71.967 E10.34312
G1 X76.502 Y71.641 E10.37763
G1 X76.783 Y71.563 E10.38733
G1 X77.68 Y71.356 E10.41795
G1 X78.53 Y71.233 E10.44651
G1 X78.782 Y71.207 E10.45494
G1 X79.711 Y71.152 E10.48589
G1 X80.672 Y71.139 E10.51786
G1 X139.396 Y71.139 E12.47103
G1 X139.901 Y71.145 E12.48783
G1 X140.284 Y71.157 E12.50057
G1 X140.901 Y71.188 E12.52112
G1 X141.818 Y71.274 E12.55175
G1 X142.91 Y71.484 E12.58874
G1 X143.157 Y71.545 E12.5972
G1 X144.409 Y71.938 E12.64084
G1 X144.516 Y71.979 E12.64465
G1 X145.655 Y72.494 E12.68623
G1 X145.889 Y72.617 E12.69502
G1 X146.685 Y73.081 E12.72567
G1 X147.198 Y73.432 E12.74634
G1 X147.349 Y73.542 E12.75256
G1 X148.294 Y74.317 E12.7932
G1 X148.448 Y74.459 E12.80017
G1 X149.097 Y75.112 E12.83079
G1 X149.474 Y75.549 E12.84999
G1 X149.625 Y75.734 E12.85793
G1 X150.175 Y76.472 E12.88854
G1 X150.522 Y77.016 E12.91001
G1 X150.644 Y77.221 E12.91794
G1 X151.08 Y78.032 E12.94856
G1 X151.445 Y78.879 E12.97924
G1 X151.546 Y79.145 E12.9887
G1 X151.835 Y80.019 E13.01932
G1 X151.997 Y80.669 E13.0416
G1 X152.04 Y80.868 E13.04837
G1 X152.232 Y82.109 E13.09014
G1 X152.253 Y82.331 E13.09756
G1 X152.294 Y82.971 E13.11889
G1 X152.309 Y83.496 E13.13636
G1 X152.311 Y83.71 E13.14347
G1 X152.31 Y135.999 E14.88261
G1 X152.305 Y136.346 E14.89416
G1 X152.293 Y136.711 E14.9063
G1 X152.263 Y137.324 E14.92671
G1 X152.178 Y138.241 E14.95734
G1 X152.01 Y139.164 E14.98855
G1 X151.955 Y139.405 E14.99677
G1 X151.712 Y140.293 E15.02739
G1 X151.41 Y141.114 E15.05649
G1 X151.319 Y141.333 E15.06437
G1 X150.855 Y142.306 E15.10023
G1 X150.795 Y142.417 E15.10442
G1 X150.136 Y143.481 E15.14605
G1 X149.993 Y143.684 E15.15431
G1 X149.43 Y144.413 E15.18495
G1 X148.843 Y145.054 E15.21385
G1 X148.664 Y145.234 E15.2223
G1 X147.987 Y145.858 E15.25292
G1 X147.455 Y146.279 E15.27548
G1 X147.274 Y146.413 E15.28298
G1 X146.149 Y147.141 E15.32754
G1 X145.967 Y147.243 E15.33448
G1 X145.145 Y147.658 E15.36511
G1 X144.39 Y147.964 E15.39221
G1 X144.119 Y148.062 E15.40179
G1 X143.24 Y148.337 E15.43242
G1 X142.528 Y148.501 E15.45672
G1 X142.342 Y148.537 E15.46303
G1 X141.314 Y148.684 E15.49756
G1 X141.1 Y148.704 E15.50471
G1 X140.482 Y148.744 E15.52531
G1 X140.223 Y148.753 E15.53393
G1 X139.955 Y148.759 E15.54285
G1 X139.641 Y148.761 E15.55329
G1 X127.757 Y148.759 E15.94855
G1 X127.21 Y148.751 E15.96675
G1 X126.885 Y148.741 E15.97756
G1 X125.191 Y148.664 E16.03396
G1 X122.565 Y148.583 E16.12135
G1 X120.054 Y148.575 E16.20486
G1 X117.447 Y148.641 E16.2916
G1 X115.847 Y148.719 E16.34488
G1 X115.624 Y148.732 E16.35231
G1 X115.305 Y148.746 E16.36293
G1 X115 Y148.755 E16.37308
G1 X114.687 Y148.76 E16.38349
G1 X80.454 Y148.76 E17.52208
G1 X79.748 Y148.75 E17.54557
G1 X79.15 Y148.725 E17.56548
G1 X78.938 Y148.71 E17.57254
G1 X78.023 Y148.605 E17.60318
G1 X77.528 Y148.514 E17.61992
G1 X77.302 Y148.467 E17.62759
G1 X76.409 Y148.241 E17.65823
G1 X75.785 Y148.031 E17.68013
G1 X75.574 Y147.953 E17.68761
G1 X74.339 Y147.405 E17.73255
G1 X74.163 Y147.313 E17.73916
G1 X73.366 Y146.851 E17.7698
G1 X72.948 Y146.571 E17.78653
G1 X72.746 Y146.428 E17.79476
G1 X72.019 Y145.863 E17.82539
G1 X71.509 Y145.403 E17.84823
G1 X71.394 Y145.292 E17.85354
G1 X70.76 Y144.624 E17.88418
G1 X70.454 Y144.255 E17.90012
G1 X70.3 Y144.061 E17.90836
G1 X69.676 Y143.188 E17.94405
G1 X69.537 Y142.971 E17.95262
G1 X69.075 Y142.175 E17.98323
G1 X68.517 Y140.92 E18.02891
G1 X68.409 Y140.627 E18.0393
G1 X68.129 Y139.75 E18.06992
G1 X67.934 Y138.899 E18.09896
G1 X67.889 Y138.657 E18.10714
G1 X67.726 Y137.31 E18.15227
G1 X67.715 Y137.113 E18.15883
G1 X67.703 Y136.802 E18.16919
G1 X67.694 Y136.461 E18.18053
G1 X67.69 Y136.181 E18.18985
G1 X67.69 Y83.879 E19.92942
G1 X67.7 Y83.193 E19.95224
G1 X67.726 Y82.586 E19.97244
G1 X67.742 Y82.364 E19.97985
G1 X67.848 Y81.449 E20.01048
G1 X67.947 Y80.918 E20.02845
G1 X67.993 Y80.702 E20.03579
G1 X68.224 Y79.811 E20.06641
G1 X68.408 Y79.262 E20.08567
G1 X68.478 Y79.071 E20.09243
G1 X69.018 Y77.845 E20.13699
G1 X69.091 Y77.704 E20.14227
G1 X69.762 Y76.583 E20.18572
G1 X69.954 Y76.303 E20.19702
G1 X70.507 Y75.567 E20.22764
G1 X71.154 Y74.85 E20.25976
G1 X71.313 Y74.689 E20.26728
G0 F6000 X71.598 Y74.97
G1 F1200 X72.26 Y74.356 E20.29731
G1 X73.288 Y73.59 E20.33995
G1 X73.572 Y73.405 E20.35123
G1 X74.652 Y72.792 E20.39253
G1 X74.85 Y72.695 E20.39986
G1 X75.677 Y72.334 E20.42988
G1 X76.609 Y72.027 E20.46251
G1 X76.89 Y71.949 E20.47221
G1 X77.77 Y71.746 E20.50225
G1 X78.571 Y71.631 E20.52916
G1 X78.823 Y71.605 E20.53759
G1 X79.717 Y71.552 E20.56738
G1 X80.672 Y71.539 E20.59914
G1 X139.396 Y71.539 E22.55231
G1 X139.895 Y71.545 E22.56891
G1 X140.264 Y71.557 E22.58119
G1 X140.881 Y71.588 E22.60174
G1 X141.78 Y71.673 E22.63177
G1 X142.815 Y71.873 E22.66683
G1 X143.062 Y71.934 E22.67529
G1 X144.266 Y72.311 E22.71726
G1 X144.373 Y72.352 E22.72107
G1 X145.469 Y72.848 E22.76108
G1 X145.703 Y72.971 E22.76987
G1 X146.483 Y73.426 E22.79991
G1 X146.963 Y73.756 E22.81928
G1 X147.114 Y73.866 E22.82549
G1 X148.022 Y74.611 E22.86456
G1 X148.176 Y74.753 E22.87153
G1 X148.813 Y75.394 E22.90158
G1 X149.164 Y75.802 E22.91948
G1 X149.315 Y75.987 E22.92743
G1 X149.854 Y76.712 E22.95747
G1 X150.178 Y77.221 E22.97754
G1 X150.3 Y77.426 E22.98548
G1 X150.727 Y78.221 E23.01549
G1 X151.071 Y79.021 E23.04445
G1 X151.172 Y79.287 E23.05392
G1 X151.455 Y80.145 E23.08397
G1 X151.606 Y80.754 E23.10484
G1 X151.649 Y80.953 E23.11161
G1 X151.834 Y82.146 E23.15176
G1 X151.855 Y82.368 E23.15918
G1 X151.894 Y82.984 E23.17971
G1 X151.909 Y83.5 E23.19688
G1 X151.911 Y83.714 E23.20399
G1 X151.91 Y135.993 E24.9428
G1 X151.905 Y136.34 E24.95434
G1 X151.894 Y136.692 E24.96606
G1 X151.864 Y137.305 E24.98647
G1 X151.78 Y138.204 E25.0165
G1 X151.62 Y139.075 E25.04596
G1 X151.565 Y139.316 E25.05418
G1 X151.326 Y140.187 E25.08422
G1 X151.04 Y140.961 E25.11166
G1 X150.949 Y141.18 E25.11955
G1 X150.503 Y142.116 E25.15403
G1 X150.443 Y142.227 E25.15823
G1 X149.809 Y143.251 E25.19829
G1 X149.666 Y143.454 E25.20655
G1 X149.113 Y144.169 E25.23661
G1 X148.56 Y144.772 E25.26382
G1 X148.381 Y144.952 E25.27227
G1 X147.716 Y145.564 E25.30233
G1 X147.217 Y145.958 E25.32347
G1 X147.036 Y146.092 E25.33096
G1 X145.954 Y146.792 E25.37383
G1 X145.772 Y146.894 E25.38076
G1 X144.965 Y147.3 E25.41081
G1 X144.254 Y147.588 E25.43633
G1 X143.983 Y147.686 E25.44591
G1 X143.121 Y147.955 E25.47594
G1 X142.452 Y148.108 E25.49877
G1 X142.266 Y148.144 E25.50507
G1 X141.277 Y148.286 E25.5383
G1 X141.063 Y148.306 E25.54545
G1 X140.468 Y148.344 E25.56528
G1 X140.209 Y148.353 E25.5739
G1 X139.951 Y148.359 E25.58248
G1 X139.641 Y148.361 E25.5928
G1 X127.763 Y148.359 E25.98786
G1 X127.216 Y148.351 E26.00605
G1 X126.903 Y148.342 E26.01647
G1 X125.149 Y148.263 E26.07487
G1 X122.579 Y148.183 E26.16039
G1 X120.046 Y148.174 E26.24463
G1 X117.459 Y148.24 E26.33071
G1 X115.806 Y148.321 E26.38575
G1 X115.6 Y148.333 E26.39261
G1 X115.293 Y148.347 E26.40284
G1 X114.988 Y148.356 E26.41299
G1 X114.687 Y148.36 E26.423
G1 X80.46 Y148.36 E27.56139
G1 X79.754 Y148.35 E27.58488
G1 X79.178 Y148.326 E27.60405
G1 X78.966 Y148.311 E27.61112
G1 X78.069 Y148.207 E27.64115
G1 X77.609 Y148.122 E27.65671
G1 X77.383 Y148.075 E27.66439
G1 X76.508 Y147.852 E27.69442
G1 X75.923 Y147.656 E27.71494
G1 X75.712 Y147.578 E27.72242
G1 X74.524 Y147.05 E27.76566
G1 X74.348 Y146.958 E27.77227
G1 X73.567 Y146.505 E27.8023
G1 X73.18 Y146.244 E27.81782
G1 X72.978 Y146.101 E27.82606
G1 X72.264 Y145.547 E27.85611
G1 X71.787 Y145.115 E27.87752
G1 X71.672 Y145.004 E27.88283
G1 X70.767 Y144.007 E27.92762
G1 X70.613 Y143.813 E27.93586
G1 X70.013 Y142.973 E27.97019
G1 X69.874 Y142.756 E27.97876
G1 X69.421 Y141.974 E28.00882
G1 X68.892 Y140.782 E28.0522
G1 X68.784 Y140.489 E28.06258
G1 X68.51 Y139.628 E28.09263
G1 X68.327 Y138.826 E28.11999
G1 X68.282 Y138.584 E28.12818
G1 X68.126 Y137.288 E28.1716
G1 X68.115 Y137.091 E28.17816
G1 X68.103 Y136.791 E28.18815
G1 X68.094 Y136.45 E28.19949
G1 X68.09 Y136.181 E28.20844
G1 X68.09 Y83.885 E29.94781
G1 X68.1 Y83.199 E29.97063
G1 X68.125 Y82.615 E29.99007
G1 X68.141 Y82.393 E29.99748
G1 X68.246 Y81.496 E30.02751
G1 X68.339 Y81.001 E30.04426
G1 X68.385 Y80.785 E30.05161
G1 X68.612 Y79.911 E30.08164
G1 X68.784 Y79.4 E30.09958
G1 X68.854 Y79.209 E30.10634
G1 X69.373 Y78.029 E30.14922
G1 X69.446 Y77.888 E30.1545
G1 X70.092 Y76.81 E30.1963
G1 X70.284 Y76.53 E30.20759
G1 X70.827 Y75.808 E30.23764
G1 X71.439 Y75.131 E30.26799
G1 X71.598 Y74.97 E30.27552
G1 F1500 E26.27552
;MESH:Zero2_Bottom_Extension_ver1.STL
G0 F6000 X79.592 Y81.097
G0 X79.916 Y82.058
G0 X136.093 Y82.541
G0 X133.925 Y85.159
G0 X134.694 Y87.867
G0 X136.578 Y89.312
;TYPE:WALL-INNER
G1 F1500 E30.27552
G1 F1200 X136.619 Y89.33 E30.27701
G1 X137.033 Y89.41 E30.29103
G1 X137.404 Y89.438 E30.30341
G1 X137.793 Y89.429 E30.31635
G1 X138.179 Y89.373 E30.32932
G1 X138.557 Y89.277 E30.34229
G1 X138.903 Y89.145 E30.35461
G1 X139.25 Y88.971 E30.36752
G1 X139.578 Y88.756 E30.38056
G1 X139.862 Y88.519 E30.39287
G1 X140.134 Y88.242 E30.40578
G1 X140.374 Y87.931 E30.41884
G1 X140.576 Y87.599 E30.43177
G1 X140.733 Y87.263 E30.44411
G1 X140.86 Y86.899 E30.45693
G1 X140.946 Y86.514 E30.47005
G1 X140.984 Y86.143 E30.48245
G1 X140.985 Y85.757 E30.49529
G1 X140.942 Y85.37 E30.50824
G1 X140.856 Y84.986 E30.52133
G1 X140.733 Y84.636 E30.53367
G1 X140.569 Y84.287 E30.5465
G1 X140.363 Y83.952 E30.55958
G1 X140.122 Y83.646 E30.57253
G1 X139.862 Y83.381 E30.58488
G1 X139.563 Y83.133 E30.5978
G1 X139.232 Y82.92 E30.61089
G1 X138.902 Y82.755 E30.62316
G1 X138.541 Y82.618 E30.636
G1 X138.159 Y82.522 E30.6491
G1 X137.774 Y82.47 E30.66203
G1 X137.402 Y82.462 E30.6744
G1 X137.015 Y82.493 E30.68731
G1 X136.632 Y82.569 E30.7003
G1 X136.279 Y82.681 E30.71262
G1 X135.922 Y82.835 E30.72555
G1 X135.583 Y83.032 E30.73859
G1 X135.27 Y83.265 E30.75157
G1 X134.998 Y83.517 E30.7639
G1 X134.741 Y83.81 E30.77686
G1 X134.52 Y84.133 E30.78988
G1 X134.345 Y84.461 E30.80225
G1 X134.198 Y84.818 E30.81509
G1 X134.091 Y85.196 E30.82815
G1 X134.03 Y85.581 E30.84112
G1 X134.01 Y85.95 E30.85341
G1 X134.031 Y86.34 E30.8664
G1 X134.098 Y86.726 E30.87943
G1 X134.205 Y87.1 E30.89237
G1 X134.345 Y87.441 E30.90463
G1 X134.529 Y87.784 E30.91758
G1 X134.755 Y88.105 E30.93063
G1 X134.998 Y88.383 E30.94291
G1 X135.282 Y88.646 E30.95579
G1 X135.599 Y88.879 E30.96887
G1 X135.939 Y89.071 E30.98186
