;FLAVOR:Marlin
;TIME:135
;Filament used: 0.048475m
;Layer height: 0.2
;MINX:93.713
;MINY:93.713
;MINZ:0.2
;MAXX:126.287
;MAXY:126.287
;MAXZ:3
;Generated with Cura_SteamEngine 4.13.1
M140 S55
M105
M190 S55
M104 S200
M105
M109 S200
M82 ;absolute extrusion mode
; Ender 3 Custom Start G-code
G92 E0 ; Reset Extruder
G28 ; Home all axes
G1 Z2.0 F3000 ; Move Z Axis up little to prevent scratching of Heat Bed
G1 X0.1 Y20 Z0.3 F5000.0 ; Move to start position
G1 X0.1 Y200.0 Z0.3 F1500.0 E15 ; Draw the first line
G1 X0.4 Y200.0 Z0.3 F5000.0 ; Move to side a little
G1 X0.4 Y20 Z0.3 F1500.0 E30 ; Draw the second line
G92 E0 ; Reset Extruder
G1 Z2.0 F3000 ; Move Z Axis up little to prevent scratching of Heat Bed
G1 X5 Y20 Z0.3 F5000.0 ; Move over to prevent blob squish
G92 E0
G92 E0
G1 F1500 E-4
;LAYER_COUNT:15
;LAYER:0
M107
G0 F6000 X98.508 Y98.459 Z0.2
;TYPE:SKIRT
G1 F1500 E0
G1 F1200 X98.89 Y98.089 E0.01769
G1 X99.01 Y97.978 E0.02313
G1 X99.419 Y97.618 E0.04125
G1 X99.695 Y97.387 E0.05322
G1 X100.265 Y96.941 E0.07729
G1 X100.421 Y96.827 E0.08372
G1 X100.761 Y96.588 E0.09754
G1 X101.065 Y96.383 E0.10973
G1 X101.51 Y96.098 E0.12731
G1 X101.632 Y96.024 E0.13206
G1 X102.135 Y95.737 E0.15132
G1 X102.448 Y95.569 E0.16313
G1 X103.018 Y95.284 E0.18433
G1 X103.186 Y95.206 E0.19049
G1 X103.579 Y95.033 E0.20477
G1 X103.931 Y94.886 E0.21746
G1 X104.588 Y94.635 E0.24085
G1 X104.739 Y94.583 E0.24616
G1 X105.21 Y94.433 E0.2626
G1 X105.583 Y94.323 E0.27554
G1 X106.161 Y94.17 E0.29542
G1 X106.292 Y94.139 E0.2999
G1 X106.761 Y94.038 E0.31586
G1 X107.138 Y93.966 E0.32862
G1 X107.694 Y93.875 E0.34736
G1 X107.853 Y93.853 E0.3527
G1 X108.426 Y93.789 E0.37188
G1 X108.801 Y93.757 E0.3844
G1 X109.409 Y93.722 E0.40465
G1 X109.577 Y93.717 E0.41024
G1 X110.059 Y93.713 E0.42627
G1 X110.414 Y93.718 E0.43808
G1 X111.03 Y93.744 E0.45859
G1 X111.215 Y93.757 E0.46476
G1 X111.698 Y93.802 E0.48089
G1 X112.064 Y93.844 E0.49314
G1 X112.667 Y93.93 E0.5134
G1 X112.813 Y93.955 E0.51833
G1 X113.327 Y94.056 E0.53575
G1 X113.703 Y94.139 E0.54856
G1 X114.321 Y94.294 E0.56975
G1 X114.491 Y94.342 E0.57563
G1 X114.942 Y94.48 E0.59131
G1 X115.27 Y94.588 E0.6028
G1 X115.87 Y94.805 E0.62402
G1 X116.027 Y94.867 E0.62963
G1 X116.489 Y95.062 E0.64631
G1 X116.839 Y95.219 E0.65907
G1 X117.345 Y95.461 E0.67773
G1 X117.478 Y95.529 E0.68269
G1 X117.94 Y95.779 E0.70017
G1 X118.275 Y95.971 E0.71301
G1 X118.778 Y96.278 E0.73261
G1 X118.911 Y96.364 E0.73788
G1 X119.362 Y96.672 E0.75604
G1 X119.64 Y96.872 E0.76743
G1 X120.1 Y97.221 E0.78664
G1 X120.267 Y97.355 E0.79376
G1 X120.659 Y97.685 E0.8108
G1 X120.913 Y97.909 E0.82206
G1 X121.356 Y98.323 E0.84223
G1 X121.49 Y98.455 E0.84849
G1 X121.875 Y98.853 E0.86691
G1 X122.121 Y99.121 E0.879
G1 X122.504 Y99.562 E0.89843
G1 X122.612 Y99.693 E0.90408
G1 X122.91 Y100.07 E0.92006
G1 X123.121 Y100.35 E0.93172
G1 X123.457 Y100.821 E0.95097
G1 X123.546 Y100.953 E0.95626
G1 X123.845 Y101.421 E0.97473
G1 X124.041 Y101.746 E0.98736
G1 X124.325 Y102.247 E1.00651
G1 X124.404 Y102.395 E1.01209
G1 X124.654 Y102.894 E1.03065
G1 X124.82 Y103.247 E1.04363
G1 X125.034 Y103.732 E1.06126
G1 X125.086 Y103.858 E1.06579
G1 X125.276 Y104.351 E1.08337
G1 X125.404 Y104.709 E1.09601
G1 X125.61 Y105.347 E1.11831
G1 X125.657 Y105.509 E1.12392
G1 X125.783 Y105.982 E1.1402
G1 X125.872 Y106.349 E1.15276
G1 X125.977 Y106.829 E1.1691
G1 X126.004 Y106.967 E1.17378
G1 X126.106 Y107.578 E1.19438
G1 X126.16 Y107.97 E1.20754
G1 X126.228 Y108.596 E1.22849
G1 X126.241 Y108.759 E1.23393
G1 X126.268 Y109.212 E1.24902
G1 X126.282 Y109.577 E1.26117
G1 X126.287 Y110.266 E1.28409
G1 X126.283 Y110.431 E1.28958
G1 X126.265 Y110.848 E1.30346
G1 X126.241 Y111.233 E1.31629
G1 X126.176 Y111.923 E1.33934
G1 X126.159 Y112.058 E1.34386
G1 X126.093 Y112.506 E1.35893
G1 X126.026 Y112.905 E1.37238
G1 X125.939 Y113.366 E1.38799
G1 X125.911 Y113.498 E1.39247
G1 X125.749 Y114.158 E1.41508
G1 X125.646 Y114.529 E1.42788
G1 X125.469 Y115.104 E1.44789
G1 X125.416 Y115.261 E1.4534
G1 X125.244 Y115.736 E1.47021
G1 X125.11 Y116.08 E1.48249
G1 X124.874 Y116.639 E1.50267
G1 X124.804 Y116.793 E1.50829
G1 X124.617 Y117.185 E1.52274
G1 X124.454 Y117.509 E1.5348
G1 X124.107 Y118.145 E1.5589
G1 X124.024 Y118.286 E1.56434
G1 X123.801 Y118.649 E1.57851
G1 X123.584 Y118.987 E1.59187
G1 X123.232 Y119.502 E1.61262
G1 X123.166 Y119.593 E1.61636
G1 X122.872 Y119.98 E1.63252
G1 X122.62 Y120.297 E1.64599
G1 X122.171 Y120.826 E1.66907
G1 X122.068 Y120.94 E1.67418
G1 X121.772 Y121.256 E1.68858
G1 X121.51 Y121.524 E1.70105
G1 X121.108 Y121.914 E1.71967
G1 X120.99 Y122.023 E1.72502
G1 X120.559 Y122.401 E1.74408
G1 X120.274 Y122.638 E1.75641
G1 X119.776 Y123.028 E1.77745
G1 X119.623 Y123.141 E1.78378
G1 X119.274 Y123.389 E1.79802
G1 X118.977 Y123.591 E1.80996
G1 X118.407 Y123.953 E1.83242
G1 X118.279 Y124.029 E1.83737
G1 X117.865 Y124.263 E1.85319
G1 X117.552 Y124.431 E1.86501
G1 X116.982 Y124.716 E1.8862
G1 X116.814 Y124.794 E1.89236
G1 X116.421 Y124.967 E1.90664
G1 X116.069 Y125.114 E1.91933
G1 X115.412 Y125.365 E1.94272
G1 X115.261 Y125.417 E1.94804
G1 X114.79 Y125.567 E1.96448
G1 X114.417 Y125.677 E1.97741
G1 X113.839 Y125.83 E1.9973
G1 X113.708 Y125.861 E2.00177
G1 X113.239 Y125.962 E2.01773
G1 X112.862 Y126.034 E2.0305
G1 X112.306 Y126.125 E2.04924
G1 X112.147 Y126.147 E2.05457
G1 X111.574 Y126.211 E2.07375
G1 X111.199 Y126.243 E2.08627
G1 X110.591 Y126.278 E2.10652
G1 X110.423 Y126.283 E2.11211
G1 X109.941 Y126.287 E2.12815
G1 X109.586 Y126.282 E2.13995
G1 X108.97 Y126.256 E2.16046
G1 X108.785 Y126.243 E2.16663
G1 X108.302 Y126.198 E2.18276
G1 X107.936 Y126.156 E2.19502
G1 X107.333 Y126.07 E2.21528
G1 X107.187 Y126.045 E2.2202
G1 X106.673 Y125.944 E2.23763
G1 X106.297 Y125.861 E2.25043
G1 X105.679 Y125.706 E2.27162
G1 X105.509 Y125.658 E2.2775
G1 X105.058 Y125.52 E2.29319
G1 X104.73 Y125.412 E2.30467
G1 X104.13 Y125.195 E2.32589
G1 X103.973 Y125.133 E2.33151
G1 X103.508 Y124.937 E2.34829
G1 X103.156 Y124.779 E2.36112
G1 X102.652 Y124.537 E2.37972
G1 X102.521 Y124.47 E2.38461
G1 X102.06 Y124.221 E2.40204
G1 X101.718 Y124.025 E2.41515
G1 X101.188 Y123.701 E2.43581
G1 X101.062 Y123.619 E2.44081
G1 X100.636 Y123.327 E2.45799
G1 X100.347 Y123.119 E2.46983
G1 X99.855 Y122.743 E2.49043
G1 X99.698 Y122.616 E2.49714
G1 X99.352 Y122.324 E2.5122
G1 X99.095 Y122.098 E2.52358
G1 X98.611 Y121.646 E2.54561
G1 X98.481 Y121.517 E2.5517
G1 X98.157 Y121.182 E2.5672
G1 X97.92 Y120.926 E2.57881
G1 X97.499 Y120.444 E2.60009
G1 X97.378 Y120.297 E2.60642
G1 X97.079 Y119.916 E2.62253
G1 X96.87 Y119.638 E2.6341
G1 X96.519 Y119.145 E2.65423
G1 X96.424 Y119.003 E2.65991
G1 X96.145 Y118.563 E2.67724
G1 X95.954 Y118.246 E2.68955
G1 X95.641 Y117.69 E2.71077
G1 X95.56 Y117.536 E2.71656
G1 X95.337 Y117.089 E2.73317
G1 X95.176 Y116.746 E2.74578
G1 X94.98 Y116.303 E2.76189
G1 X94.925 Y116.171 E2.76664
G1 X94.706 Y115.601 E2.78695
G1 X94.58 Y115.244 E2.79954
G1 X94.399 Y114.683 E2.81915
G1 X94.352 Y114.523 E2.8247
G1 X94.214 Y114.008 E2.84243
G1 X94.126 Y113.644 E2.85489
G1 X94.02 Y113.156 E2.8715
G1 X93.993 Y113.017 E2.8762
G1 X93.894 Y112.421 E2.8963
G1 X93.84 Y112.029 E2.90946
G1 X93.772 Y111.408 E2.93024
G1 X93.759 Y111.246 E2.93564
G1 X93.732 Y110.785 E2.951
G1 X93.718 Y110.418 E2.96322
G1 X93.713 Y109.729 E2.98614
G1 X93.717 Y109.566 E2.99156
G1 X93.735 Y109.152 E3.00534
G1 X93.759 Y108.767 E3.01817
G1 X93.824 Y108.077 E3.04122
G1 X93.841 Y107.942 E3.04575
G1 X93.907 Y107.494 E3.06081
G1 X93.974 Y107.095 E3.07427
G1 X94.092 Y106.497 E3.09454
G1 X94.122 Y106.364 E3.09907
G1 X94.24 Y105.89 E3.11532
G1 X94.342 Y105.516 E3.12821
G1 X94.539 Y104.87 E3.15068
G1 X94.591 Y104.717 E3.15605
G1 X94.755 Y104.269 E3.17192
G1 X94.89 Y103.922 E3.1843
G1 X95.136 Y103.338 E3.20538
G1 X95.205 Y103.187 E3.2109
G1 X95.389 Y102.804 E3.22503
G1 X95.556 Y102.473 E3.23736
G1 X95.901 Y101.842 E3.26128
G1 X95.98 Y101.708 E3.26646
G1 X96.199 Y101.351 E3.28039
G1 X96.416 Y101.013 E3.29375
G1 X96.768 Y100.498 E3.31449
G1 X96.834 Y100.407 E3.31823
G1 X97.139 Y100.006 E3.33499
G1 X97.395 Y99.685 E3.34865
G1 X97.819 Y99.185 E3.37045
G1 X97.918 Y99.075 E3.37537
G1 X98.243 Y98.729 E3.39116
G1 X98.508 Y98.459 E3.40374
G0 F6000 X98.794 Y98.739
G1 F1200 X99.161 Y98.383 E3.42075
G1 X99.281 Y98.272 E3.42619
G1 X99.676 Y97.924 E3.4437
G1 X99.952 Y97.693 E3.45567
G1 X100.501 Y97.264 E3.47884
G1 X100.657 Y97.15 E3.48527
G1 X100.985 Y96.92 E3.49859
G1 X101.289 Y96.715 E3.51079
G1 X101.718 Y96.44 E3.52774
G1 X101.84 Y96.366 E3.53248
G1 X102.324 Y96.089 E3.55103
G1 X102.637 Y95.921 E3.56284
G1 X103.186 Y95.647 E3.58325
G1 X103.354 Y95.569 E3.58941
G1 X103.733 Y95.402 E3.60319
G1 X104.085 Y95.255 E3.61587
G1 X104.719 Y95.014 E3.63843
G1 X104.87 Y94.962 E3.64375
G1 X105.323 Y94.817 E3.65957
G1 X105.696 Y94.707 E3.6725
G1 X106.253 Y94.559 E3.69167
G1 X106.384 Y94.528 E3.69615
G1 X106.837 Y94.431 E3.71155
G1 X107.214 Y94.359 E3.72432
G1 X107.749 Y94.271 E3.74235
G1 X107.908 Y94.249 E3.74769
G1 X108.46 Y94.187 E3.76617
G1 X108.835 Y94.155 E3.77868
G1 X109.421 Y94.122 E3.79821
G1 X109.589 Y94.117 E3.8038
G1 X110.053 Y94.113 E3.81923
G1 X110.408 Y94.118 E3.83104
G1 X111.002 Y94.143 E3.85081
G1 X111.187 Y94.156 E3.85698
G1 X111.652 Y94.199 E3.87251
G1 X112.018 Y94.241 E3.88477
G1 X112.599 Y94.324 E3.90429
G1 X112.745 Y94.349 E3.90921
G1 X113.241 Y94.446 E3.92602
G1 X113.617 Y94.529 E3.93883
G1 X114.212 Y94.679 E3.95924
G1 X114.382 Y94.727 E3.96511
G1 X114.817 Y94.86 E3.98024
G1 X115.145 Y94.968 E3.99173
G1 X115.723 Y95.177 E4.01217
G1 X115.88 Y95.239 E4.01778
G1 X116.325 Y95.426 E4.03384
G1 X116.675 Y95.583 E4.0466
G1 X117.162 Y95.817 E4.06457
G1 X117.295 Y95.885 E4.06954
G1 X117.741 Y96.126 E4.0864
G1 X118.076 Y96.318 E4.09924
G1 X118.561 Y96.614 E4.11814
G1 X118.694 Y96.7 E4.12341
G1 X119.128 Y96.996 E4.14088
G1 X119.406 Y97.196 E4.15227
G1 X119.85 Y97.533 E4.17081
G1 X120.017 Y97.667 E4.17793
G1 X120.394 Y97.985 E4.19433
G1 X120.648 Y98.209 E4.2056
G1 X121.076 Y98.608 E4.22506
G1 X121.21 Y98.74 E4.23132
G1 X121.58 Y99.123 E4.24903
G1 X121.826 Y99.391 E4.26113
G1 X122.196 Y99.816 E4.27987
G1 X122.304 Y99.947 E4.28552
G1 X122.59 Y100.311 E4.30091
G1 X122.801 Y100.591 E4.31257
G1 X123.125 Y101.044 E4.3311
G1 X123.214 Y101.176 E4.33639
G1 X123.502 Y101.628 E4.35422
G1 X123.698 Y101.953 E4.36684
G1 X123.972 Y102.435 E4.38528
G1 X124.051 Y102.583 E4.39086
G1 X124.292 Y103.064 E4.40876
G1 X124.458 Y103.417 E4.42173
G1 X124.664 Y103.884 E4.43871
G1 X124.716 Y104.01 E4.44324
G1 X124.899 Y104.485 E4.46017
G1 X125.027 Y104.843 E4.47282
G1 X125.226 Y105.458 E4.49432
G1 X125.273 Y105.62 E4.49993
G1 X125.394 Y106.076 E4.51562
G1 X125.483 Y106.443 E4.52818
G1 X125.585 Y106.906 E4.54395
G1 X125.612 Y107.044 E4.54862
G1 X125.71 Y107.632 E4.56845
G1 X125.764 Y108.024 E4.58161
G1 X125.829 Y108.628 E4.60182
G1 X125.842 Y108.791 E4.60726
G1 X125.868 Y109.228 E4.62182
G1 X125.882 Y109.593 E4.63396
G1 X125.887 Y110.256 E4.65602
G1 X125.883 Y110.421 E4.66151
G1 X125.865 Y110.823 E4.67489
G1 X125.841 Y111.208 E4.68772
G1 X125.779 Y111.873 E4.70993
G1 X125.762 Y112.008 E4.71446
G1 X125.699 Y112.439 E4.72895
G1 X125.632 Y112.838 E4.7424
G1 X125.547 Y113.283 E4.75747
G1 X125.519 Y113.415 E4.76196
G1 X125.364 Y114.051 E4.78373
G1 X125.261 Y114.422 E4.79654
G1 X125.09 Y114.976 E4.81582
G1 X125.037 Y115.133 E4.82133
G1 X124.871 Y115.59 E4.83751
G1 X124.737 Y115.934 E4.84978
G1 X124.51 Y116.473 E4.86924
G1 X124.44 Y116.627 E4.87486
G1 X124.259 Y117.005 E4.8888
G1 X124.096 Y117.329 E4.90087
G1 X123.762 Y117.942 E4.92408
G1 X123.679 Y118.083 E4.92953
G1 X123.464 Y118.433 E4.94319
G1 X123.247 Y118.771 E4.95655
G1 X122.908 Y119.267 E4.97653
G1 X122.842 Y119.358 E4.98027
G1 X122.559 Y119.731 E4.99584
G1 X122.307 Y120.048 E5.00931
G1 X121.874 Y120.558 E5.03156
G1 X121.771 Y120.672 E5.03667
G1 X121.486 Y120.976 E5.05053
G1 X121.224 Y121.244 E5.063
G1 X120.837 Y121.62 E5.08094
G1 X120.719 Y121.729 E5.08629
G1 X120.304 Y122.093 E5.10465
G1 X120.019 Y122.33 E5.11697
G1 X119.538 Y122.707 E5.1373
G1 X119.385 Y122.82 E5.14363
G1 X119.049 Y123.058 E5.15732
G1 X118.752 Y123.26 E5.16927
G1 X118.203 Y123.609 E5.19091
G1 X118.075 Y123.685 E5.19586
G1 X117.676 Y123.911 E5.21111
G1 X117.363 Y124.079 E5.22292
G1 X116.814 Y124.353 E5.24333
G1 X116.646 Y124.431 E5.24949
G1 X116.267 Y124.598 E5.26327
G1 X115.915 Y124.745 E5.27595
G1 X115.281 Y124.986 E5.29851
G1 X115.13 Y125.038 E5.30383
G1 X114.677 Y125.183 E5.31965
G1 X114.304 Y125.293 E5.33258
G1 X113.747 Y125.441 E5.35175
G1 X113.616 Y125.472 E5.35623
G1 X113.163 Y125.569 E5.37163
G1 X112.786 Y125.641 E5.3844
G1 X112.251 Y125.729 E5.40243
G1 X112.092 Y125.751 E5.40777
G1 X111.54 Y125.813 E5.42625
G1 X111.165 Y125.845 E5.43877
G1 X110.579 Y125.878 E5.45829
G1 X110.411 Y125.883 E5.46388
G1 X109.947 Y125.887 E5.47931
G1 X109.592 Y125.882 E5.49112
G1 X108.998 Y125.857 E5.51089
G1 X108.813 Y125.844 E5.51706
G1 X108.348 Y125.801 E5.53259
G1 X107.982 Y125.759 E5.54485
G1 X107.401 Y125.676 E5.56437
G1 X107.255 Y125.651 E5.56929
G1 X106.759 Y125.554 E5.5861
G1 X106.383 Y125.471 E5.59891
G1 X105.788 Y125.321 E5.61932
G1 X105.618 Y125.273 E5.62519
G1 X105.183 Y125.14 E5.64032
G1 X104.855 Y125.032 E5.65181
G1 X104.277 Y124.823 E5.67225
G1 X104.12 Y124.761 E5.67786
G1 X103.672 Y124.572 E5.69404
G1 X103.32 Y124.414 E5.70687
G1 X102.834 Y124.181 E5.7248
G1 X102.703 Y124.114 E5.72969
G1 X102.259 Y123.874 E5.74648
G1 X101.917 Y123.678 E5.75959
G1 X101.406 Y123.365 E5.77952
G1 X101.28 Y123.283 E5.78452
G1 X100.87 Y123.002 E5.80105
G1 X100.581 Y122.794 E5.81289
G1 X100.107 Y122.432 E5.83273
G1 X99.95 Y122.305 E5.83945
G1 X99.616 Y122.024 E5.85396
G1 X99.359 Y121.798 E5.86535
G1 X98.893 Y121.362 E5.88657
G1 X98.763 Y121.233 E5.89266
G1 X98.451 Y120.91 E5.9076
G1 X98.214 Y120.654 E5.9192
G1 X97.808 Y120.19 E5.93971
G1 X97.687 Y120.043 E5.94604
G1 X97.398 Y119.676 E5.96158
G1 X97.189 Y119.398 E5.97315
G1 X96.852 Y118.922 E5.99255
G1 X96.757 Y118.78 E5.99823
G1 X96.488 Y118.356 E6.01493
G1 X96.297 Y118.039 E6.02724
G1 X95.995 Y117.503 E6.0477
G1 X95.914 Y117.349 E6.05349
G1 X95.699 Y116.919 E6.06948
G1 X95.538 Y116.576 E6.08208
G1 X95.349 Y116.149 E6.09761
G1 X95.294 Y116.017 E6.10237
G1 X95.083 Y115.468 E6.12193
G1 X94.957 Y115.111 E6.13452
G1 X94.783 Y114.571 E6.15339
G1 X94.736 Y114.411 E6.15894
G1 X94.603 Y113.914 E6.17605
G1 X94.515 Y113.55 E6.1885
G1 X94.412 Y113.08 E6.20451
G1 X94.385 Y112.941 E6.20922
G1 X94.29 Y112.367 E6.22857
G1 X94.236 Y111.975 E6.24173
G1 X94.171 Y111.376 E6.26177
G1 X94.158 Y111.214 E6.26718
G1 X94.132 Y110.77 E6.28197
G1 X94.118 Y110.403 E6.29418
G1 X94.113 Y109.739 E6.31627
G1 X94.117 Y109.576 E6.32169
G1 X94.135 Y109.177 E6.33498
G1 X94.159 Y108.792 E6.34781
G1 X94.221 Y108.127 E6.37002
G1 X94.238 Y107.992 E6.37455
G1 X94.301 Y107.561 E6.38903
G1 X94.368 Y107.162 E6.40249
G1 X94.482 Y106.585 E6.42205
G1 X94.512 Y106.452 E6.42659
G1 X94.626 Y105.995 E6.44225
G1 X94.728 Y105.621 E6.45515
G1 X94.918 Y104.999 E6.47678
G1 X94.97 Y104.846 E6.48215
G1 X95.127 Y104.414 E6.49744
G1 X95.262 Y104.067 E6.50982
G1 X95.5 Y103.504 E6.53015
G1 X95.569 Y103.353 E6.53568
G1 X95.746 Y102.984 E6.54929
G1 X95.913 Y102.653 E6.56162
G1 X96.246 Y102.045 E6.58467
G1 X96.325 Y101.911 E6.58985
G1 X96.536 Y101.567 E6.60327
G1 X96.753 Y101.229 E6.61663
G1 X97.092 Y100.733 E6.63661
G1 X97.158 Y100.642 E6.64035
G1 X97.452 Y100.256 E6.65649
G1 X97.708 Y99.935 E6.67015
G1 X98.116 Y99.453 E6.69115
G1 X98.215 Y99.343 E6.69607
G1 X98.529 Y99.009 E6.71132
G1 X98.794 Y98.739 E6.7239
G0 F6000 X99.079 Y99.019
G1 F1200 X99.433 Y98.676 E6.7403
G1 X99.553 Y98.565 E6.74573
