;FLAVOR:Marlin
;TIME:1295
;Filament used: 0.667333m
;Layer height: 0.2
;MINX:80.213
;MINY:80.224
;MINZ:0.2
;MAXX:139.788
;MAXY:139.776
;MAXZ:4
;Generated with Cura_SteamEngine 4.13.1
M140 S55
M105
M190 S55
M104 S205
M105
M109 S205
M82 ;absolute extrusion mode
; Ender 3 Custom Start G-code
G92 E0 ; Reset Extruder
G28 ; Home all axes
G1 Z2.0 F3000 ; Move Z Axis up little to prevent scratching of Heat Bed
G1 X0.1 Y20 Z0.3 F5000.0 ; Move to start position
G1 X0.1 Y200.0 Z0.3 F1500.0 E15 ; Draw the first line
G1 X0.4 Y200.0 Z0.3 F5000.0 ; Move to side a little
G1 X0.4 Y20 Z0.3 F1500.0 E30 ; Draw the second line
G92 E0 ; Reset Extruder
G1 Z2.0 F3000 ; Move Z Axis up little to prevent scratching of Heat Bed
G1 X5 Y20 Z0.3 F5000.0 ; Move over to prevent blob squish
G92 E0
G92 E0
G1 F1500 E-4
;LAYER_COUNT:20
;LAYER:0
M107
G0 F6000 X89.181 Y88.699 Z0.2
;TYPE:SKIRT
G1 F1500 E0
G1 F1200 X89.624 Y88.27 E0.02051
G1 X89.858 Y88.056 E0.03106
G1 X90.109 Y87.834 E0.0422
G1 X90.955 Y87.108 E0.07928
G1 X91.423 Y86.718 E0.09954
G1 X91.86 Y86.372 E0.11808
G1 X92.121 Y86.176 E0.12894
G1 X92.43 Y85.952 E0.14163
G1 X93.276 Y85.363 E0.17592
G1 X93.903 Y84.939 E0.20109
G1 X94.445 Y84.595 E0.22244
G1 X94.694 Y84.447 E0.23208
G1 X94.966 Y84.291 E0.24251
G1 X95.907 Y83.768 E0.27831
G1 X96.507 Y83.445 E0.30098
G1 X97.103 Y83.147 E0.32314
G1 X97.343 Y83.036 E0.33194
G1 X97.609 Y82.918 E0.34161
G1 X98.583 Y82.499 E0.37688
G1 X99.275 Y82.213 E0.40178
G1 X99.849 Y81.994 E0.42222
G1 X100.141 Y81.892 E0.43251
G1 X100.476 Y81.782 E0.44423
G1 X101.501 Y81.461 E0.47996
G1 X102.173 Y81.261 E0.50328
G1 X102.821 Y81.09 E0.52557
G1 X103.148 Y81.014 E0.53673
G1 X103.422 Y80.954 E0.54606
G1 X104.401 Y80.754 E0.5793
G1 X105.113 Y80.619 E0.6034
G1 X105.716 Y80.521 E0.62372
G1 X105.995 Y80.484 E0.63308
G1 X106.315 Y80.447 E0.64379
G1 X107.334 Y80.343 E0.67786
G1 X108.078 Y80.277 E0.70271
G1 X108.715 Y80.239 E0.72393
G1 X109.043 Y80.229 E0.73484
G1 X109.378 Y80.224 E0.74599
G1 X110.245 Y80.224 E0.77482
G1 X111.101 Y80.235 E0.8033
G1 X111.777 Y80.266 E0.8258
G1 X112.198 Y80.298 E0.83985
G1 X112.485 Y80.323 E0.84943
G1 X113.372 Y80.415 E0.87909
G1 X114.123 Y80.502 E0.90423
G1 X114.733 Y80.59 E0.92473
G1 X114.993 Y80.635 E0.93351
G1 X115.309 Y80.695 E0.94421
G1 X116.428 Y80.924 E0.9822
G1 X117.068 Y81.065 E1.00399
G1 X117.689 Y81.221 E1.02529
G1 X117.976 Y81.302 E1.03521
G1 X118.264 Y81.387 E1.0452
G1 X119.323 Y81.719 E1.08211
G1 X119.957 Y81.928 E1.10431
G1 X120.518 Y82.13 E1.12414
G1 X120.784 Y82.234 E1.13364
G1 X121.096 Y82.362 E1.14486
G1 X122.031 Y82.762 E1.17868
G1 X122.782 Y83.097 E1.20603
G1 X123.345 Y83.367 E1.2268
G1 X123.533 Y83.464 E1.23384
G1 X123.804 Y83.609 E1.24406
G1 X124.614 Y84.056 E1.27483
G1 X125.411 Y84.512 E1.30537
G1 X125.955 Y84.844 E1.32657
G1 X126.246 Y85.034 E1.33813
G1 X126.511 Y85.213 E1.34876
G1 X127.19 Y85.685 E1.37627
G1 X127.923 Y86.211 E1.40628
G1 X128.379 Y86.557 E1.42531
G1 X128.626 Y86.755 E1.43584
G1 X128.907 Y86.988 E1.44798
G1 X129.719 Y87.686 E1.4836
G1 X130.251 Y88.157 E1.50723
G1 X130.721 Y88.599 E1.52869
G1 X130.963 Y88.84 E1.54005
G1 X131.182 Y89.064 E1.55047
G1 X131.886 Y89.808 E1.58454
G1 X132.328 Y90.286 E1.60619
G1 X132.741 Y90.759 E1.62707
G1 X132.933 Y90.992 E1.63712
G1 X133.134 Y91.243 E1.64781
G1 X133.774 Y92.07 E1.68259
G1 X134.227 Y92.674 E1.7077
G1 X134.573 Y93.163 E1.72763
G1 X134.728 Y93.395 E1.73691
G1 X134.904 Y93.666 E1.74766
G1 X135.496 Y94.614 E1.78483
G1 X135.845 Y95.193 E1.80731
G1 X136.139 Y95.713 E1.82718
G1 X136.276 Y95.971 E1.8369
G1 X136.43 Y96.273 E1.84817
G1 X136.919 Y97.268 E1.88505
G1 X137.211 Y97.887 E1.90781
G1 X137.454 Y98.441 E1.92793
G1 X137.573 Y98.734 E1.93845
G1 X137.689 Y99.033 E1.94912
G1 X138.049 Y100.002 E1.9835
G1 X138.292 Y100.685 E2.00761
G1 X138.494 Y101.312 E2.02952
G1 X138.569 Y101.571 E2.03849
G1 X138.647 Y101.856 E2.04832
G1 X138.922 Y102.914 E2.08468
G1 X139.092 Y103.612 E2.10857
G1 X139.223 Y104.227 E2.12948
G1 X139.291 Y104.597 E2.142
G1 X139.346 Y104.924 E2.15302
G1 X139.481 Y105.817 E2.18306
G1 X139.587 Y106.576 E2.20855
G1 X139.659 Y107.239 E2.23073
G1 X139.69 Y107.635 E2.24394
G1 X139.71 Y107.942 E2.25418
G1 X139.757 Y108.894 E2.28588
G1 X139.783 Y109.616 E2.30991
G1 X139.788 Y110.234 E2.33046
G1 X139.782 Y110.531 E2.34034
G1 X139.77 Y110.861 E2.35133
G1 X139.715 Y111.933 E2.38703
G1 X139.672 Y112.6 E2.40926
G1 X139.614 Y113.221 E2.43
G1 X139.551 Y113.718 E2.44667
G1 X139.505 Y114.039 E2.45745
G1 X139.372 Y114.897 E2.48633
G1 X139.257 Y115.583 E2.50947
G1 X139.139 Y116.182 E2.52977
G1 X139.066 Y116.506 E2.54082
G1 X138.967 Y116.914 E2.55478
G1 X138.72 Y117.866 E2.58749
G1 X138.529 Y118.56 E2.61143
G1 X138.359 Y119.12 E2.6309
G1 X138.283 Y119.348 E2.63889
G1 X138.168 Y119.674 E2.65039
G1 X137.855 Y120.523 E2.68049
G1 X137.521 Y121.388 E2.71133
G1 X137.287 Y121.947 E2.73148
G1 X137.15 Y122.25 E2.74254
G1 X137.007 Y122.554 E2.75372
G1 X136.532 Y123.521 E2.78955
G1 X136.238 Y124.098 E2.81109
G1 X135.951 Y124.626 E2.83108
G1 X135.785 Y124.912 E2.84207
G1 X135.613 Y125.198 E2.85317
G1 X135.143 Y125.954 E2.88278
G1 X134.666 Y126.696 E2.91212
G1 X134.314 Y127.211 E2.93287
G1 X134.127 Y127.468 E2.94344
G1 X133.93 Y127.73 E2.95434
G1 X133.318 Y128.518 E2.98753
G1 X132.86 Y129.093 E3.01198
G1 X132.478 Y129.548 E3.03174
G1 X132.27 Y129.782 E3.04215
G1 X132.021 Y130.052 E3.05437
G1 X131.3 Y130.809 E3.08914
G1 X130.817 Y131.303 E3.11212
G1 X130.376 Y131.73 E3.13253
G1 X130.142 Y131.944 E3.14308
G1 X129.891 Y132.166 E3.15422
G1 X129.029 Y132.906 E3.19201
G1 X128.517 Y133.331 E3.21414
G1 X128.045 Y133.701 E3.23409
G1 X127.828 Y133.862 E3.24308
G1 X127.574 Y134.045 E3.25349
G1 X126.725 Y134.637 E3.28791
G1 X126.093 Y135.064 E3.31328
G1 X125.555 Y135.405 E3.33447
G1 X125.306 Y135.553 E3.3441
G1 X125.037 Y135.708 E3.35443
G1 X124.236 Y136.154 E3.38492
G1 X123.49 Y136.556 E3.41311
G1 X122.897 Y136.853 E3.43516
G1 X122.657 Y136.964 E3.44396
G1 X122.391 Y137.082 E3.45364
G1 X121.417 Y137.501 E3.4889
G1 X120.725 Y137.787 E3.51381
G1 X120.151 Y138.006 E3.53424
G1 X119.859 Y138.108 E3.54453
G1 X119.524 Y138.218 E3.55626
G1 X118.499 Y138.539 E3.59198
G1 X117.827 Y138.739 E3.6153
G1 X117.179 Y138.91 E3.63759
G1 X116.852 Y138.986 E3.64876
G1 X116.578 Y139.046 E3.65809
G1 X115.599 Y139.246 E3.69132
G1 X114.887 Y139.381 E3.71542
G1 X114.284 Y139.479 E3.73574
G1 X114.005 Y139.516 E3.7451
G1 X113.685 Y139.553 E3.75582
G1 X112.666 Y139.657 E3.78989
G1 X111.922 Y139.723 E3.81473
G1 X111.285 Y139.761 E3.83595
G1 X110.957 Y139.771 E3.84687
G1 X110.622 Y139.776 E3.85801
G1 X109.597 Y139.775 E3.8921
G1 X108.899 Y139.765 E3.91532
G1 X108.268 Y139.738 E3.93633
G1 X107.948 Y139.715 E3.947
G1 X107.633 Y139.688 E3.95751
G1 X106.628 Y139.585 E3.99111
G1 X105.877 Y139.498 E4.01626
G1 X105.267 Y139.41 E4.03676
G1 X105.007 Y139.365 E4.04553
G1 X104.691 Y139.305 E4.05623
G1 X103.572 Y139.076 E4.09422
G1 X102.932 Y138.935 E4.11602
G1 X102.311 Y138.779 E4.13732
G1 X102.024 Y138.698 E4.14723
G1 X101.736 Y138.613 E4.15722
G1 X100.677 Y138.281 E4.19413
G1 X100.043 Y138.072 E4.21634
G1 X99.482 Y137.87 E4.23617
G1 X99.216 Y137.766 E4.24567
G1 X98.902 Y137.638 E4.25695
G1 X97.95 Y137.23 E4.2914
G1 X97.213 Y136.901 E4.31824
G1 X96.652 Y136.631 E4.33895
G1 X96.253 Y136.422 E4.35393
G1 X95.949 Y136.256 E4.36545
G1 X95.232 Y135.857 E4.39274
G1 X94.588 Y135.488 E4.41743
G1 X94.058 Y135.164 E4.43809
G1 X93.809 Y135.002 E4.44797
G1 X93.536 Y134.819 E4.4589
G1 X92.817 Y134.32 E4.48801
G1 X92.077 Y133.789 E4.5183
G1 X91.621 Y133.443 E4.53734
G1 X91.374 Y133.245 E4.54787
G1 X91.093 Y133.012 E4.56001
G1 X90.281 Y132.314 E4.59562
G1 X89.749 Y131.843 E4.61926
G1 X89.305 Y131.427 E4.63949
G1 X89.118 Y131.242 E4.64824
G1 X88.884 Y131.004 E4.65934
G1 X88.108 Y130.186 E4.69684
G1 X87.663 Y129.704 E4.71866
G1 X87.261 Y129.244 E4.73898
G1 X87.072 Y129.015 E4.74886
G1 X86.866 Y128.757 E4.75984
G1 X86.226 Y127.93 E4.79462
G1 X85.773 Y127.326 E4.81973
G1 X85.427 Y126.837 E4.83965
G1 X85.272 Y126.605 E4.84893
G1 X85.096 Y126.334 E4.85968
G1 X84.603 Y125.547 E4.89057
G1 X84.152 Y124.801 E4.91956
G1 X83.852 Y124.272 E4.93979
G1 X83.718 Y124.019 E4.94931
G1 X83.57 Y123.727 E4.9602
G1 X83.076 Y122.721 E4.99748
G1 X82.782 Y122.096 E5.02045
G1 X82.545 Y121.554 E5.04013
G1 X82.428 Y121.266 E5.05046
G1 X82.311 Y120.966 E5.06117
G1 X81.952 Y119.999 E5.09548
G1 X81.706 Y119.308 E5.11988
G1 X81.499 Y118.663 E5.14241
G1 X81.427 Y118.413 E5.15106
G1 X81.353 Y118.144 E5.16034
G1 X81.122 Y117.258 E5.19079
G1 X80.908 Y116.383 E5.22075
G1 X80.778 Y115.778 E5.24134
G1 X80.71 Y115.409 E5.25382
G1 X80.654 Y115.076 E5.26505
G1 X80.519 Y114.186 E5.29499
G1 X80.412 Y113.421 E5.32068
G1 X80.341 Y112.778 E5.34219
G1 X80.316 Y112.467 E5.35257
G1 X80.295 Y112.15 E5.36314
G1 X80.25 Y111.274 E5.39231
G1 X80.218 Y110.367 E5.4225
G1 X80.213 Y109.801 E5.44132
G1 X80.218 Y109.505 E5.45117
G1 X80.23 Y109.139 E5.46335
G1 X80.285 Y108.062 E5.49922
G1 X80.329 Y107.385 E5.52178
G1 X80.388 Y106.76 E5.54266
G1 X80.419 Y106.507 E5.55114
G1 X80.461 Y106.195 E5.56161
G1 X80.628 Y105.103 E5.59835
G1 X80.743 Y104.417 E5.62149
G1 X80.861 Y103.818 E5.64179
G1 X80.934 Y103.494 E5.65284
G1 X81.012 Y103.171 E5.66389
G1 X81.28 Y102.134 E5.69952
G1 X81.471 Y101.44 E5.72346
G1 X81.641 Y100.88 E5.74292
G1 X81.717 Y100.652 E5.75092
G1 X81.832 Y100.326 E5.76241
G1 X82.212 Y99.3 E5.7988
G1 X82.485 Y98.597 E5.82389
G1 X82.712 Y98.055 E5.84343
G1 X82.846 Y97.758 E5.85427
G1 X82.993 Y97.446 E5.86574
G1 X83.458 Y96.498 E5.90086
G1 X83.744 Y95.934 E5.92189
G1 X84.048 Y95.376 E5.94303
G1 X84.222 Y95.077 E5.95453
G1 X84.387 Y94.802 E5.9652
G1 X84.958 Y93.886 E6.0011
G1 X85.35 Y93.279 E6.02513
G1 X85.7 Y92.771 E6.04565
G1 X85.877 Y92.528 E6.05565
G1 X86.07 Y92.27 E6.06637
G1 X86.675 Y91.491 E6.09917
G1 X87.132 Y90.916 E6.1236
G1 X87.539 Y90.432 E6.14463
G1 X87.748 Y90.198 E6.15507
G1 X87.982 Y89.945 E6.16653
G1 X88.708 Y89.183 E6.20154
G1 X89.181 Y88.699 E6.22405
G0 F6000 X89.467 Y88.978
G1 F1200 X89.894 Y88.565 E6.2438
G1 X90.128 Y88.351 E6.25435
G1 X90.37 Y88.137 E6.2651
G1 X91.211 Y87.415 E6.30196
G1 X91.679 Y87.025 E6.32222
G1 X92.1 Y86.692 E6.34008
G1 X92.361 Y86.496 E6.35093
G1 X92.659 Y86.28 E6.36317
G1 X93.5 Y85.694 E6.39727
G1 X94.127 Y85.27 E6.42244
G1 X94.649 Y84.939 E6.443
G1 X94.898 Y84.791 E6.45263
G1 X95.16 Y84.64 E6.46269
G1 X96.096 Y84.121 E6.49829
G1 X96.696 Y83.798 E6.52095
G1 X97.271 Y83.51 E6.54234
G1 X97.511 Y83.399 E6.55114
G1 X97.767 Y83.285 E6.56046
G1 X98.736 Y82.869 E6.59553
G1 X99.428 Y82.583 E6.62044
G1 X99.981 Y82.372 E6.64012
G1 X100.273 Y82.27 E6.65041
G1 X100.595 Y82.163 E6.66169
G1 X101.615 Y81.844 E6.69724
G1 X102.287 Y81.644 E6.72056
G1 X102.911 Y81.479 E6.74203
G1 X103.238 Y81.403 E6.75319
G1 X103.503 Y81.345 E6.76222
G1 X104.315 Y81.178 E6.78979
G1 X105.187 Y81.012 E6.81931
G1 X105.768 Y80.918 E6.83889
G1 X106.047 Y80.881 E6.84825
G1 X106.356 Y80.845 E6.8586
G1 X107.369 Y80.741 E6.89247
G1 X108.113 Y80.675 E6.91731
G1 X108.727 Y80.639 E6.93777
G1 X109.055 Y80.629 E6.94868
G1 X109.378 Y80.624 E6.95942
G1 X110.245 Y80.624 E6.98826
G1 X111.095 Y80.635 E7.01653
G1 X111.746 Y80.664 E7.03821
G1 X112.167 Y80.696 E7.05225
G1 X112.444 Y80.721 E7.0615
G1 X113.326 Y80.812 E7.09099
G1 X114.077 Y80.899 E7.11614
G1 X114.665 Y80.984 E7.1359
G1 X114.925 Y81.029 E7.14467
G1 X115.23 Y81.087 E7.155
G1 X116.342 Y81.314 E7.19275
G1 X116.982 Y81.455 E7.21455
G1 X117.58 Y81.606 E7.23506
G1 X117.867 Y81.687 E7.24498
G1 X118.145 Y81.769 E7.25462
G1 X119.198 Y82.099 E7.29132
G1 X119.832 Y82.308 E7.31352
G1 X120.373 Y82.503 E7.33265
G1 X120.639 Y82.607 E7.34215
G1 X120.939 Y82.73 E7.35293
G1 X121.868 Y83.127 E7.38654
G1 X122.619 Y83.462 E7.41389
G1 X123.161 Y83.723 E7.43389
G1 X123.611 Y83.959 E7.4508
G1 X124.421 Y84.406 E7.48157
G1 X125.212 Y84.859 E7.51188
G1 X125.736 Y85.179 E7.5323
G1 X126.027 Y85.369 E7.54386
G1 X126.282 Y85.541 E7.55409
G1 X127.101 Y86.112 E7.5873
G1 X127.689 Y86.535 E7.61139
G1 X128.129 Y86.869 E7.62977
G1 X128.376 Y87.067 E7.64029
G1 X128.646 Y87.292 E7.65198
G1 X129.454 Y87.985 E7.68739
G1 X129.986 Y88.456 E7.71102
G1 X130.439 Y88.882 E7.7317
G1 X130.681 Y89.123 E7.74306
G1 X130.891 Y89.339 E7.75308
G1 X131.593 Y90.079 E7.78701
G1 X132.035 Y90.557 E7.80866
G1 X132.432 Y91.013 E7.82877
G1 X132.624 Y91.246 E7.83881
G1 X132.818 Y91.489 E7.84916
G1 X133.454 Y92.31 E7.8837
G1 X133.907 Y92.914 E7.90881
G1 X134.241 Y93.385 E7.92801
G1 X134.396 Y93.617 E7.93729
G1 X134.565 Y93.879 E7.94766
G1 X135.058 Y94.666 E7.97855
G1 X135.502 Y95.4 E8.00708
G1 X135.786 Y95.901 E8.02624
G1 X135.923 Y96.159 E8.03595
G1 X136.071 Y96.449 E8.04678
G1 X136.557 Y97.439 E8.08346
G1 X136.849 Y98.058 E8.10623
G1 X137.083 Y98.591 E8.12559
G1 X137.202 Y98.884 E8.13611
G1 X137.314 Y99.172 E8.14638
G1 X137.672 Y100.136 E8.18059
G1 X137.915 Y100.819 E8.2047
G1 X138.11 Y101.424 E8.22584
G1 X138.185 Y101.683 E8.23481
G1 X138.26 Y101.957 E8.24426
G1 X138.533 Y103.009 E8.2804
G1 X138.703 Y103.707 E8.3043
G1 X138.829 Y104.299 E8.32443
G1 X138.897 Y104.669 E8.33694
G1 X138.951 Y104.985 E8.3476
G1 X139.085 Y105.872 E8.37744
G1 X139.191 Y106.631 E8.40293
G1 X139.261 Y107.27 E8.42431
G1 X139.292 Y107.666 E8.43752
G1 X139.311 Y107.962 E8.44739
G1 X139.357 Y108.909 E8.47892
G1 X139.383 Y109.631 E8.50295
G1 X139.388 Y110.226 E8.52274
G1 X139.382 Y110.523 E8.53262
G1 X139.371 Y110.841 E8.54321
G1 X139.316 Y111.907 E8.57871
G1 X139.273 Y112.574 E8.60094
G1 X139.217 Y113.172 E8.62091
G1 X139.155 Y113.661 E8.63731
G1 X139.109 Y113.978 E8.64796
G1 X138.977 Y114.831 E8.67667
G1 X138.862 Y115.517 E8.69981
G1 X138.749 Y116.094 E8.71936
G1 X138.676 Y116.418 E8.73041
G1 X138.579 Y116.818 E8.7441
G1 X138.334 Y117.76 E8.77647
G1 X138.143 Y118.454 E8.80041
G1 X137.979 Y118.993 E8.81915
G1 X137.903 Y119.221 E8.82714
G1 X137.793 Y119.536 E8.83824
G1 X137.48 Y120.385 E8.86834
G1 X137.148 Y121.244 E8.89897
G1 X136.923 Y121.782 E8.91836
G1 X136.786 Y122.085 E8.92942
G1 X136.648 Y122.378 E8.9402
G1 X136.176 Y123.339 E8.97581
G1 X135.882 Y123.916 E8.99734
G1 X135.605 Y124.425 E9.01662
G1 X135.439 Y124.711 E9.02762
G1 X135.273 Y124.987 E9.03833
G1 X134.803 Y125.743 E9.06794
G1 X134.33 Y126.479 E9.09704
G1 X133.99 Y126.976 E9.11706
G1 X133.803 Y127.233 E9.12764
G1 X133.613 Y127.486 E9.13816
G1 X133.005 Y128.269 E9.17113
G1 X132.547 Y128.844 E9.19558
G1 X132.179 Y129.282 E9.21461
G1 X131.971 Y129.516 E9.22502
G1 X131.732 Y129.776 E9.23677
G1 X131.119 Y130.421 E9.26636
G1 X130.531 Y131.023 E9.29435
G1 X130.106 Y131.435 E9.31404
G1 X129.872 Y131.649 E9.32459
G1 X129.63 Y131.863 E9.33533
G1 X128.773 Y132.598 E9.37288
G1 X128.261 Y133.023 E9.39501
G1 X127.807 Y133.38 E9.41422
G1 X127.59 Y133.541 E9.42321
G1 X127.345 Y133.717 E9.43324
G1 X126.501 Y134.305 E9.46746
G1 X125.869 Y134.732 E9.49282
G1 X125.351 Y135.061 E9.51323
G1 X125.102 Y135.209 E9.52287
G1 X124.843 Y135.358 E9.53281
G1 X123.907 Y135.878 E9.56842
G1 X123.301 Y136.204 E9.59131
G1 X122.729 Y136.49 E9.61258
G1 X122.489 Y136.601 E9.62137
G1 X122.233 Y136.715 E9.63069
G1 X121.264 Y137.131 E9.66577
G1 X120.572 Y137.417 E9.69067
G1 X120.019 Y137.628 E9.71036
G1 X119.727 Y137.73 E9.72064
G1 X119.405 Y137.837 E9.73193
G1 X118.385 Y138.156 E9.76748
G1 X117.713 Y138.356 E9.7908
G1 X117.089 Y138.521 E9.81226
G1 X116.762 Y138.597 E9.82343
G1 X116.497 Y138.655 E9.83245
G1 X115.685 Y138.822 E9.86002
G1 X114.813 Y138.988 E9.88955
G1 X114.232 Y139.082 E9.90912
G1 X113.953 Y139.119 E9.91848
G1 X113.644 Y139.155 E9.92883
G1 X112.631 Y139.259 E9.9627
G1 X111.887 Y139.325 E9.98754
G1 X111.273 Y139.361 E10.008
G1 X110.945 Y139.371 E10.01891
