;FLAVOR:Marlin
;TIME:851
;Filament used: 0.494667m
;Layer height: 0.2
;MINX:79.286
;MINY:79.283
;MINZ:0.2
;MAXX:140.717
;MAXY:140.714
;MAXZ:6
;Generated with Cura_SteamEngine 4.13.1
M140 S50
M105
M190 S50
M104 S205
M105
M109 S205
M82 ;absolute extrusion mode
; Ender 3 Custom Start G-code
G92 E0 ; Reset Extruder
G28 ; Home all axes
G1 Z2.0 F3000 ; Move Z Axis up little to prevent scratching of Heat Bed
G1 X0.1 Y20 Z0.3 F5000.0 ; Move to start position
G1 X0.1 Y200.0 Z0.3 F1500.0 E15 ; Draw the first line
G1 X0.4 Y200.0 Z0.3 F5000.0 ; Move to side a little
G1 X0.4 Y20 Z0.3 F1500.0 E30 ; Draw the second line
G92 E0 ; Reset Extruder
G1 Z2.0 F3000 ; Move Z Axis up little to prevent scratching of Heat Bed
G1 X5 Y20 Z0.3 F5000.0 ; Move over to prevent blob squish
G92 E0
G92 E0
G1 F1500 E-4
;LAYER_COUNT:30
;LAYER:0
M107
G0 F6000 X88.214 Y88.347 Z0.2
;TYPE:SKIRT
G1 F1500 E0
G1 F1200 X88.584 Y87.986 E0.01719
G1 X89.136 Y87.46 E0.04255
G1 X89.325 Y87.284 E0.05114
G1 X89.534 Y87.094 E0.06054
G1 X89.796 Y86.863 E0.07216
G1 X90.231 Y86.494 E0.09113
G1 X90.81 Y86.017 E0.11608
G1 X91.039 Y85.833 E0.12585
G1 X91.248 Y85.67 E0.13466
G1 X91.494 Y85.484 E0.14492
G1 X91.998 Y85.115 E0.1657
G1 X92.546 Y84.726 E0.18805
G1 X92.834 Y84.529 E0.19966
G1 X93.211 Y84.279 E0.2147
G1 X93.472 Y84.111 E0.22502
G1 X93.795 Y83.91 E0.23768
G1 X94.447 Y83.514 E0.26305
G1 X94.748 Y83.338 E0.27465
G1 X95.049 Y83.168 E0.28614
G1 X95.279 Y83.042 E0.29487
G1 X95.788 Y82.772 E0.31403
G1 X96.386 Y82.466 E0.33637
G1 X96.642 Y82.339 E0.34588
G1 X96.909 Y82.211 E0.35573
G1 X97.222 Y82.067 E0.36719
G1 X97.788 Y81.818 E0.38775
G1 X98.412 Y81.554 E0.41029
G1 X98.673 Y81.448 E0.41966
G1 X98.968 Y81.332 E0.4302
G1 X99.295 Y81.209 E0.44182
G1 X99.827 Y81.02 E0.4606
G1 X100.467 Y80.801 E0.4831
G1 X100.835 Y80.683 E0.49595
G1 X101.257 Y80.555 E0.51062
G1 X101.524 Y80.477 E0.51987
G1 X101.935 Y80.365 E0.53404
G1 X102.628 Y80.183 E0.55787
G1 X102.917 Y80.111 E0.56777
G1 X103.212 Y80.042 E0.57785
G1 X103.548 Y79.969 E0.58929
G1 X104.052 Y79.869 E0.60638
G1 X104.793 Y79.73 E0.63145
G1 X105.151 Y79.669 E0.64353
G1 X105.522 Y79.612 E0.65602
G1 X105.811 Y79.571 E0.66572
G1 X106.274 Y79.513 E0.68124
G1 X106.987 Y79.432 E0.70511
G1 X107.322 Y79.399 E0.71631
G1 X107.6 Y79.376 E0.72558
G1 X107.867 Y79.358 E0.73448
G1 X108.531 Y79.321 E0.7566
G1 X109.207 Y79.294 E0.77911
G1 X109.533 Y79.286 E0.78995
G1 X109.824 Y79.283 E0.79963
G1 X110.118 Y79.283 E0.80941
G1 X110.544 Y79.29 E0.82358
G1 X111.425 Y79.318 E0.8529
G1 X111.762 Y79.334 E0.86412
G1 X112.156 Y79.359 E0.87725
G1 X112.447 Y79.381 E0.88696
G1 X112.813 Y79.414 E0.89918
G1 X113.623 Y79.499 E0.92627
G1 X113.921 Y79.534 E0.93625
G1 X114.229 Y79.575 E0.94658
G1 X114.53 Y79.619 E0.9567
G1 X115.083 Y79.71 E0.97534
G1 X115.836 Y79.844 E1.00078
G1 X116.114 Y79.897 E1.01019
G1 X116.373 Y79.95 E1.01898
G1 X116.737 Y80.031 E1.03139
G1 X117.298 Y80.167 E1.05059
G1 X117.99 Y80.342 E1.07433
G1 X118.305 Y80.426 E1.08517
G1 X118.593 Y80.508 E1.09513
G1 X118.891 Y80.598 E1.10548
G1 X119.419 Y80.766 E1.12391
G1 X120.144 Y81.008 E1.14933
G1 X120.417 Y81.103 E1.15895
G1 X120.684 Y81.2 E1.16839
G1 X120.995 Y81.318 E1.17946
G1 X121.524 Y81.53 E1.19841
G1 X122.162 Y81.795 E1.22139
G1 X122.45 Y81.92 E1.23183
G1 X122.735 Y82.048 E1.24222
G1 X122.98 Y82.161 E1.2512
G1 X123.385 Y82.355 E1.26613
G1 X123.586 Y82.454 E1.27359
G1 X124.167 Y82.747 E1.29523
G1 X124.454 Y82.897 E1.306
G1 X124.825 Y83.098 E1.32003
G1 X125.083 Y83.243 E1.32988
G1 X125.472 Y83.468 E1.34482
G1 X126.116 Y83.852 E1.36976
G1 X126.377 Y84.013 E1.37996
G1 X126.596 Y84.152 E1.38859
G1 X126.832 Y84.306 E1.39796
G1 X127.197 Y84.551 E1.41258
G1 X127.382 Y84.678 E1.42005
G1 X127.951 Y85.077 E1.44316
G1 X128.198 Y85.256 E1.45331
G1 X128.506 Y85.485 E1.46607
G1 X128.752 Y85.673 E1.47637
G1 X129.125 Y85.968 E1.49219
G1 X129.706 Y86.439 E1.51706
G1 X129.951 Y86.644 E1.52769
G1 X130.158 Y86.822 E1.53677
G1 X130.384 Y87.022 E1.54681
G1 X130.837 Y87.435 E1.56719
G1 X131.331 Y87.898 E1.58971
G1 X131.601 Y88.16 E1.60223
G1 X131.876 Y88.436 E1.61519
G1 X132.083 Y88.649 E1.62506
G1 X132.388 Y88.973 E1.63986
G1 X132.876 Y89.502 E1.6638
G1 X133.116 Y89.771 E1.67579
G1 X133.363 Y90.057 E1.68836
G1 X133.55 Y90.28 E1.69804
G1 X133.898 Y90.707 E1.71636
G1 X134.286 Y91.194 E1.73707
G1 X134.491 Y91.459 E1.74822
G1 X134.681 Y91.713 E1.75877
G1 X134.852 Y91.948 E1.76843
G1 X135.174 Y92.405 E1.78703
G1 X135.605 Y93.037 E1.81247
G1 X135.925 Y93.526 E1.83191
G1 X136.113 Y93.826 E1.84368
G1 X136.41 Y94.322 E1.86291
G1 X136.759 Y94.924 E1.88605
G1 X136.902 Y95.178 E1.89575
G1 X137.09 Y95.523 E1.90882
G1 X137.236 Y95.8 E1.91923
G1 X137.451 Y96.225 E1.93507
G1 X137.756 Y96.845 E1.95805
G1 X137.908 Y97.167 E1.9699
G1 X138.041 Y97.461 E1.98063
G1 X138.148 Y97.705 E1.98949
G1 X138.375 Y98.246 E2.009
G1 X138.643 Y98.909 E2.03279
G1 X138.764 Y99.221 E2.04392
G1 X138.884 Y99.546 E2.05544
G1 X138.997 Y99.868 E2.06679
G1 X139.139 Y100.293 E2.0817
G1 X139.368 Y101.003 E2.10651
G1 X139.456 Y101.29 E2.11649
G1 X139.54 Y101.577 E2.12644
G1 X139.628 Y101.894 E2.13738
G1 X139.778 Y102.476 E2.15737
G1 X139.944 Y103.16 E2.18078
G1 X140.004 Y103.422 E2.18972
G1 X140.068 Y103.717 E2.19976
G1 X140.133 Y104.039 E2.21069
G1 X140.241 Y104.628 E2.2306
G1 X140.353 Y105.292 E2.253
G1 X140.398 Y105.584 E2.26283
G1 X140.448 Y105.938 E2.27472
G1 X140.49 Y106.274 E2.28598
G1 X140.55 Y106.828 E2.30451
G1 X140.619 Y107.555 E2.3288
G1 X140.645 Y107.886 E2.33985
G1 X140.665 Y108.196 E2.35018
G1 X140.681 Y108.518 E2.3609
G1 X140.697 Y108.994 E2.37674
G1 X140.714 Y109.735 E2.40139
G1 X140.717 Y110.075 E2.4127
G1 X140.714 Y110.451 E2.42521
G1 X140.707 Y110.752 E2.43522
G1 X140.69 Y111.217 E2.4507
G1 X140.653 Y111.965 E2.47561
G1 X140.631 Y112.296 E2.48664
G1 X140.602 Y112.66 E2.49879
G1 X140.571 Y112.99 E2.50981
G1 X140.519 Y113.453 E2.52531
G1 X140.43 Y114.178 E2.5496
G1 X140.387 Y114.49 E2.56008
G1 X140.344 Y114.773 E2.5696
G1 X140.297 Y115.06 E2.57927
G1 X140.19 Y115.648 E2.59915
G1 X140.052 Y116.349 E2.62291
G1 X139.989 Y116.646 E2.63301
G1 X139.91 Y116.996 E2.64494
G1 X139.832 Y117.321 E2.65606
G1 X139.7 Y117.828 E2.67349
G1 X139.51 Y118.522 E2.69742
G1 X139.418 Y118.837 E2.70833
G1 X139.298 Y119.229 E2.72197
G1 X139.201 Y119.532 E2.73255
G1 X139.05 Y119.972 E2.74802
G1 X138.924 Y120.327 E2.76055
G1 X138.791 Y120.684 E2.77322
G1 X138.335 Y121.84 E2.81455
G1 X138.181 Y122.211 E2.82791
G1 X137.972 Y122.689 E2.84527
G1 X137.842 Y122.975 E2.85571
G1 X137.692 Y123.293 E2.86741
G1 X137.552 Y123.579 E2.878
G1 X137.317 Y124.039 E2.89518
G1 X137 Y124.643 E2.91787
G1 X136.852 Y124.915 E2.92817
G1 X136.678 Y125.225 E2.93999
G1 X136.511 Y125.513 E2.95106
G1 X136.224 Y125.988 E2.96952
G1 X135.864 Y126.567 E2.9922
G1 X135.717 Y126.796 E3.00125
G1 X135.543 Y127.061 E3.01179
G1 X135.34 Y127.36 E3.02381
G1 X135.027 Y127.802 E3.04183
G1 X134.617 Y128.368 E3.06507
G1 X134.423 Y128.628 E3.07586
G1 X134.195 Y128.924 E3.08829
G1 X134.006 Y129.162 E3.0984
G1 X133.664 Y129.58 E3.11636
G1 X133.213 Y130.116 E3.13966
G1 X132.974 Y130.391 E3.15178
G1 X132.732 Y130.66 E3.16381
G1 X132.54 Y130.867 E3.1732
G1 X132.203 Y131.222 E3.18948
G1 X131.691 Y131.748 E3.2139
G1 X131.479 Y131.96 E3.22387
G1 X131.295 Y132.139 E3.23241
G1 X131.066 Y132.355 E3.24288
G1 X130.605 Y132.776 E3.26364
G1 X130.065 Y133.255 E3.28765
G1 X129.823 Y133.464 E3.29829
G1 X129.548 Y133.694 E3.31021
G1 X129.288 Y133.904 E3.32133
G1 X128.92 Y134.193 E3.33689
G1 X128.351 Y134.63 E3.36075
G1 X128.063 Y134.844 E3.37268
G1 X127.734 Y135.08 E3.38615
G1 X127.49 Y135.25 E3.39604
G1 X127.152 Y135.478 E3.4096
G1 X126.499 Y135.908 E3.43561
G1 X126.231 Y136.079 E3.44618
G1 X126.019 Y136.21 E3.45447
G1 X125.766 Y136.361 E3.46427
G1 X125.19 Y136.694 E3.4864
G1 X124.601 Y137.022 E3.50882
G1 X124.372 Y137.146 E3.51748
G1 X124.068 Y137.306 E3.52891
G1 X123.752 Y137.466 E3.54069
G1 X123.254 Y137.707 E3.55909
G1 X122.613 Y138.007 E3.58263
G1 X122.299 Y138.148 E3.59408
G1 X121.997 Y138.278 E3.60501
G1 X121.733 Y138.387 E3.61451
G1 X121.188 Y138.604 E3.63402
G1 X120.542 Y138.85 E3.65702
G1 X120.268 Y138.95 E3.66672
G1 X119.963 Y139.057 E3.67747
G1 X119.638 Y139.165 E3.68886
G1 X119.103 Y139.333 E3.70751
G1 X118.455 Y139.528 E3.73002
G1 X118.168 Y139.61 E3.73994
G1 X117.844 Y139.698 E3.75111
G1 X117.554 Y139.773 E3.76107
G1 X117.024 Y139.9 E3.7792
G1 X116.258 Y140.071 E3.8053
G1 X115.762 Y140.173 E3.82215
G1 X115.372 Y140.244 E3.83533
G1 X114.853 Y140.328 E3.85282
G1 X114.085 Y140.443 E3.87865
G1 X113.732 Y140.49 E3.89049
G1 X113.398 Y140.529 E3.90168
G1 X113.098 Y140.56 E3.91171
G1 X112.565 Y140.606 E3.9295
G1 X111.935 Y140.654 E3.95052
G1 X111.627 Y140.673 E3.96078
G1 X111.273 Y140.69 E3.97257
G1 X110.974 Y140.701 E3.98252
G1 X110.406 Y140.711 E4.00141
G1 X109.677 Y140.714 E4.02566
G1 X109.34 Y140.71 E4.03687
G1 X109.001 Y140.701 E4.04815
G1 X108.686 Y140.688 E4.05863
G1 X108.172 Y140.659 E4.07576
G1 X107.491 Y140.613 E4.09846
G1 X107.155 Y140.585 E4.10967
G1 X106.84 Y140.554 E4.1202
G1 X106.556 Y140.523 E4.1297
G1 X106.003 Y140.452 E4.14825
G1 X105.27 Y140.348 E4.17287
G1 X104.947 Y140.297 E4.18375
G1 X104.564 Y140.231 E4.19667
G1 X104.257 Y140.174 E4.20706
G1 X103.785 Y140.078 E4.22308
G1 X103.099 Y139.931 E4.24641
G1 X102.728 Y139.845 E4.25908
G1 X102.409 Y139.765 E4.27002
G1 X102.134 Y139.692 E4.27948
G1 X101.587 Y139.538 E4.29838
G1 X100.971 Y139.358 E4.31973
G1 X100.675 Y139.268 E4.33002
G1 X100.353 Y139.164 E4.34127
G1 X100.028 Y139.053 E4.35269
G1 X99.496 Y138.862 E4.37149
G1 X98.882 Y138.633 E4.39329
G1 X98.606 Y138.525 E4.40315
G1 X98.247 Y138.38 E4.41602
G1 X97.916 Y138.24 E4.42798
G1 X97.447 Y138.032 E4.44504
G1 X96.811 Y137.74 E4.46832
G1 X96.554 Y137.618 E4.47778
G1 X96.281 Y137.484 E4.4879
G1 X95.997 Y137.339 E4.4985
G1 X95.465 Y137.057 E4.51853
G1 X94.848 Y136.718 E4.54194
G1 X94.564 Y136.556 E4.55282
G1 X94.226 Y136.357 E4.56586
G1 X93.967 Y136.2 E4.57594
G1 X93.59 Y135.962 E4.59077
G1 X92.968 Y135.561 E4.61538
G1 X92.673 Y135.364 E4.62718
G1 X92.43 Y135.196 E4.637
G1 X92.207 Y135.038 E4.64609
G1 X91.74 Y134.696 E4.66535
G1 X91.169 Y134.266 E4.68912
G1 X90.928 Y134.079 E4.69927
G1 X90.691 Y133.89 E4.70935
G1 X90.442 Y133.686 E4.72005
G1 X89.991 Y133.302 E4.73976
G1 X89.439 Y132.818 E4.76417
G1 X89.214 Y132.615 E4.77425
G1 X88.955 Y132.375 E4.786
G1 X88.725 Y132.156 E4.79656
G1 X88.375 Y131.81 E4.81293
G1 X87.837 Y131.264 E4.83842
G1 X87.663 Y131.083 E4.84677
G1 X87.438 Y130.844 E4.85769
G1 X87.195 Y130.578 E4.86968
G1 X86.836 Y130.168 E4.8878
G1 X86.374 Y129.628 E4.91144
G1 X86.164 Y129.376 E4.92235
G1 X85.949 Y129.109 E4.93375
G1 X85.757 Y128.864 E4.9441
G1 X85.539 Y128.577 E4.95609
G1 X85.032 Y127.89 E4.98449
G1 X84.799 Y127.563 E4.99784
G1 X84.551 Y127.2 E5.01246
G1 X84.265 Y126.765 E5.02978
G1 X83.801 Y126.035 E5.05855
G1 X83.602 Y125.709 E5.07125
G1 X83.373 Y125.314 E5.08644
G1 X83.069 Y124.767 E5.10725
G1 X82.708 Y124.093 E5.13268
G1 X82.559 Y123.804 E5.1435
G1 X82.421 Y123.527 E5.15379
G1 X82.282 Y123.237 E5.16449
G1 X82.056 Y122.746 E5.18246
G1 X81.76 Y122.08 E5.2067
G1 X81.647 Y121.816 E5.21626
G1 X81.537 Y121.55 E5.22583
G1 X81.425 Y121.268 E5.23592
G1 X81.225 Y120.74 E5.2547
G1 X80.968 Y120.032 E5.27975
G1 X80.847 Y119.68 E5.29213
G1 X80.742 Y119.357 E5.30343
G1 X80.651 Y119.063 E5.31366
G1 X80.514 Y118.597 E5.32982
G1 X80.317 Y117.898 E5.35397
G1 X80.232 Y117.574 E5.36512
G1 X80.148 Y117.237 E5.37667
G1 X80.074 Y116.922 E5.38743
G1 X79.975 Y116.467 E5.40292
G1 X79.826 Y115.744 E5.42747
G1 X79.766 Y115.429 E5.43813
G1 X79.718 Y115.156 E5.44735
G1 X79.67 Y114.86 E5.45733
G1 X79.578 Y114.225 E5.47867
G1 X79.491 Y113.56 E5.50097
G1 X79.451 Y113.21 E5.51269
G1 X79.414 Y112.834 E5.52526
G1 X79.388 Y112.53 E5.53541
G1 X79.354 Y112.039 E5.55178
G1 X79.313 Y111.332 E5.57533
G1 X79.299 Y111.005 E5.58622
G1 X79.29 Y110.686 E5.59683
G1 X79.286 Y110.376 E5.60714
G1 X79.287 Y109.82 E5.62563
G1 X79.297 Y109.128 E5.64865
G1 X79.308 Y108.775 E5.6604
G1 X79.326 Y108.389 E5.67325
G1 X79.342 Y108.122 E5.68215
G1 X79.379 Y107.618 E5.69896
G1 X79.439 Y106.922 E5.72219
G1 X79.47 Y106.613 E5.73252
G1 X79.505 Y106.308 E5.74273
G1 X79.544 Y106.003 E5.75296
G1 X79.634 Y105.387 E5.77366
G1 X79.743 Y104.71 E5.79647
G1 X79.796 Y104.406 E5.80673
G1 X79.853 Y104.106 E5.81689
G1 X79.916 Y103.801 E5.82725
G1 X80.037 Y103.252 E5.84595
G1 X80.198 Y102.564 E5.86945
G1 X80.288 Y102.209 E5.88163
G1 X80.382 Y101.86 E5.89365
G1 X80.456 Y101.597 E5.90274
G1 X80.602 Y101.107 E5.91974
G1 X80.823 Y100.398 E5.94444
G1 X80.92 Y100.102 E5.9548
G1 X80.991 Y99.895 E5.96208
G1 X81.097 Y99.599 E5.97254
G1 X81.276 Y99.122 E5.98949
G1 X81.59 Y98.324 E6.01801
G1 X81.728 Y97.99 E6.03003
G1 X81.885 Y97.628 E6.04315
G1 X81.998 Y97.377 E6.05231
G1 X82.205 Y96.933 E6.0686
G1 X82.509 Y96.301 E6.09193
G1 X82.642 Y96.033 E6.10188
G1 X82.78 Y95.765 E6.1119
G1 X82.932 Y95.481 E6.12262
G1 X83.192 Y95.012 E6.14045
G1 X83.557 Y94.373 E6.16493
G1 X83.742 Y94.062 E6.17696
G1 X83.955 Y93.716 E6.19048
G1 X84.116 Y93.462 E6.20048
G1 X84.347 Y93.11 E6.21448
G1 X84.763 Y92.491 E6.23929
G1 X84.949 Y92.224 E6.25011
G1 X85.138 Y91.96 E6.26091
G1 X85.328 Y91.703 E6.27154
G1 X85.644 Y91.289 E6.28886
G1 X86.066 Y90.749 E6.31166
G1 X86.258 Y90.51 E6.32185
G1 X86.464 Y90.261 E6.3326
G1 X86.682 Y90.005 E6.34379
G1 X87.06 Y89.578 E6.36275
G1 X87.543 Y89.045 E6.38668
G1 X87.762 Y88.81 E6.39736
G1 X87.983 Y88.58 E6.40797
G1 X88.214 Y88.347 E6.41888
G0 F6000 X88.494 Y88.632
G1 F1200 X88.86 Y88.275 E6.43589
G1 X89.412 Y87.749 E6.46125
G1 X89.803 Y87.39 E6.4789
G1 X90.055 Y87.167 E6.4901
G1 X90.485 Y86.803 E6.50883
G1 X91.064 Y86.326 E6.53378
G1 X91.285 Y86.148 E6.54322
G1 X91.494 Y85.985 E6.55204
G1 X91.731 Y85.806 E6.56192
G1 X92.229 Y85.441 E6.58245
G1 X92.777 Y85.052 E6.6048
G1 X93.055 Y84.862 E6.616
G1 X93.432 Y84.612 E6.63105
G1 X93.683 Y84.45 E6.64099
G1 X94.002 Y84.252 E6.65347
G1 X94.654 Y83.856 E6.67885
G1 X94.944 Y83.686 E6.69003
G1 X95.245 Y83.516 E6.70152
G1 X95.808 Y83.213 E6.72279
G1 X95.97 Y83.128 E6.72887
G1 X96.568 Y82.822 E6.75122
G1 X96.815 Y82.7 E6.76038
G1 X97.082 Y82.572 E6.77023
G1 X97.383 Y82.433 E6.78125
G1 X97.944 Y82.187 E6.80163
G1 X98.568 Y81.923 E6.82416
G1 X98.819 Y81.82 E6.83319
G1 X99.114 Y81.704 E6.84373
G1 X99.429 Y81.586 E6.85492
G1 X99.956 Y81.399 E6.87352
G1 X100.596 Y81.18 E6.89602
G1 X100.951 Y81.065 E6.90843
G1 X101.373 Y80.937 E6.92309
G1 X101.63 Y80.863 E6.93199
G1 X102.036 Y80.752 E6.94599
G1 X102.729 Y80.57 E6.96982
G1 X103.008 Y80.501 E6.97938
G1 X103.303 Y80.432 E6.98945
G1 X103.627 Y80.361 E7.00049
G1 X104.126 Y80.262 E7.01741
G1 X104.867 Y80.123 E7.04248
G1 X105.211 Y80.064 E7.05409
G1 X105.582 Y80.007 E7.06658
G1 X105.861 Y79.968 E7.07595
G1 X106.319 Y79.911 E7.0913
G1 X107.032 Y79.83 E7.11516
G1 X107.355 Y79.798 E7.12596
G1 X107.633 Y79.775 E7.13524
G1 X107.89 Y79.757 E7.14381
G1 X108.547 Y79.72 E7.16569
G1 X109.223 Y79.693 E7.18819
G1 X109.537 Y79.686 E7.19864
G1 X109.828 Y79.683 E7.20832
G1 X110.111 Y79.683 E7.21773
G1 X110.537 Y79.69 E7.2319
G1 X111.412 Y79.718 E7.26102
G1 X111.736 Y79.733 E7.27181
G1 X112.13 Y79.758 E7.28494
G1 X112.411 Y79.78 E7.29431
G1 X112.936 Y79.828 E7.31185
G1 X113.581 Y79.896 E7.33342
G1 X113.869 Y79.931 E7.34307
G1 X114.177 Y79.972 E7.3534
G1 X114.467 Y80.014 E7.36315
G1 X115.013 Y80.104 E7.38155
G1 X115.766 Y80.238 E7.40699
G1 X116.034 Y80.289 E7.41607
G1 X116.293 Y80.342 E7.42486
G1 X116.644 Y80.42 E7.43682
G1 X117.2 Y80.555 E7.45585
G1 X117.892 Y80.73 E7.47959
G1 X118.196 Y80.811 E7.49005
G1 X118.484 Y80.893 E7.50001
G1 X118.77 Y80.979 E7.50995
