;FLAVOR:Marlin
;TIME:12116
;Filament used: 8.10832m
;Layer height: 0.2
;MINX:51
;MINY:76
;MINZ:0.2
;MAXX:169
;MAXY:144
;MAXZ:70.6
;Generated with Cura_SteamEngine 4.13.1
M140 S55
M105
M190 S55
M104 S205
M105
M109 S205
M82 ;absolute extrusion mode
; Ender 3 Custom Start G-code
G92 E0 ; Reset Extruder
G28 ; Home all axes
G1 Z2.0 F3000 ; Move Z Axis up little to prevent scratching of Heat Bed
G1 X0.1 Y20 Z0.3 F5000.0 ; Move to start position
G1 X0.1 Y200.0 Z0.3 F1500.0 E15 ; Draw the first line
G1 X0.4 Y200.0 Z0.3 F5000.0 ; Move to side a little
G1 X0.4 Y20 Z0.3 F1500.0 E30 ; Draw the second line
G92 E0 ; Reset Extruder
G1 Z2.0 F3000 ; Move Z Axis up little to prevent scratching of Heat Bed
G1 X5 Y20 Z0.3 F5000.0 ; Move over to prevent blob squish
G92 E0
G92 E0
G1 F1500 E-4
;LAYER_COUNT:353
;LAYER:0
M107
G0 F6000 X56.62 Y77.915 Z0.2
;TYPE:SKIRT
G1 F1500 E0
G1 F1200 X57.417 Y77.422 E0.03117
G1 X58.254 Y76.998 E0.06238
G1 X59.124 Y76.647 E0.09358
G1 X60.02 Y76.371 E0.12476
G1 X60.937 Y76.173 E0.15596
G1 X62.151 Y76.033 E0.19661
G1 X62.303 Y76.024 E0.20167
G1 X62.819 Y76.006 E0.21885
G1 X63.362 Y76 E0.23691
G1 X156.493 Y76 E3.33446
G1 X157.351 Y76.011 E3.363
G1 X158.287 Y76.064 E3.39418
G1 X159.216 Y76.197 E3.42539
G1 X160.129 Y76.409 E3.45657
G1 X161.022 Y76.697 E3.48777
G1 X161.886 Y77.061 E3.51896
G1 X162.717 Y77.497 E3.55017
G1 X163.507 Y78.002 E3.58136
G1 X164.251 Y78.572 E3.61253
G1 X164.648 Y78.921 E3.63011
G1 X164.801 Y79.062 E3.63703
G1 X165.029 Y79.277 E3.64745
G1 X165.193 Y79.437 E3.65507
G1 X165.393 Y79.638 E3.6645
G1 X165.872 Y80.13 E3.68734
G1 X166.497 Y80.829 E3.71853
G1 X167.06 Y81.579 E3.74972
G1 X167.557 Y82.374 E3.7809
G1 X167.985 Y83.209 E3.81211
G1 X168.34 Y84.077 E3.8433
G1 X168.619 Y84.972 E3.87448
G1 X168.822 Y85.888 E3.90569
G1 X168.946 Y86.817 E3.93686
G1 X168.982 Y87.387 E3.95586
G1 X168.994 Y87.806 E3.9698
G1 X169 Y88.362 E3.98829
G1 X168.999 Y131.65 E5.42806
G1 X168.989 Y132.352 E5.45141
G1 X168.936 Y133.288 E5.48259
G1 X168.803 Y134.216 E5.51377
G1 X168.591 Y135.13 E5.54498
G1 X168.303 Y136.023 E5.57619
G1 X167.939 Y136.887 E5.60737
G1 X167.503 Y137.718 E5.63858
G1 X166.998 Y138.508 E5.66977
G1 X166.428 Y139.252 E5.70094
G1 X166.056 Y139.674 E5.71965
G1 X165.747 Y140.004 E5.73469
G1 X165.587 Y140.169 E5.74233
G1 X165.339 Y140.416 E5.75397
G1 X164.844 Y140.895 E5.77688
G1 X164.143 Y141.518 E5.80808
G1 X163.392 Y142.079 E5.83925
G1 X162.595 Y142.573 E5.87044
G1 X161.759 Y142.999 E5.90165
G1 X160.89 Y143.351 E5.93283
G1 X159.994 Y143.628 E5.96403
G1 X159.077 Y143.828 E5.99524
G1 X158.147 Y143.949 E6.02643
G1 X157.566 Y143.984 E6.04579
G1 X157.181 Y143.994 E6.0586
G1 X156.638 Y144 E6.07666
G1 X63.351 Y143.999 E9.1794
G1 X62.648 Y143.989 E9.20279
G1 X61.711 Y143.936 E9.234
G1 X60.783 Y143.803 E9.26518
G1 X59.869 Y143.591 E9.29639
G1 X58.977 Y143.303 E9.32757
G1 X58.112 Y142.939 E9.35878
G1 X57.282 Y142.503 E9.38996
G1 X56.491 Y141.998 E9.42118
G1 X55.747 Y141.428 E9.45235
G1 X55.297 Y141.03 E9.47233
G1 X54.964 Y140.716 E9.48755
G1 X54.787 Y140.543 E9.49578
G1 X54.576 Y140.33 E9.50576
G1 X54.11 Y139.849 E9.52803
G1 X53.486 Y139.148 E9.55925
G1 X52.925 Y138.397 E9.59042
G1 X52.43 Y137.6 E9.62163
G1 X52.004 Y136.765 E9.65281
G1 X51.651 Y135.896 E9.684
G1 X51.374 Y135 E9.7152
G1 X51.173 Y134.084 E9.74639
G1 X51.052 Y133.154 E9.77758
G1 X51.016 Y132.57 E9.79704
G1 X51.01 Y132.394 E9.8029
G1 X51.001 Y131.753 E9.82422
G1 X51 Y88.516 E11.26229
G1 X51.01 Y87.718 E11.28883
G1 X51.063 Y86.781 E11.32005
G1 X51.149 Y86.119 E11.34225
G1 X51.159 Y86.057 E11.34434
G1 X51.348 Y85.139 E11.37551
G1 X51.614 Y84.239 E11.40673
G1 X51.956 Y83.366 E11.43791
G1 X52.371 Y82.525 E11.4691
G1 X52.856 Y81.722 E11.5003
G1 X53.408 Y80.964 E11.53149
G1 X54.084 Y80.191 E11.56565
G1 X54.613 Y79.64 E11.59105
G1 X54.912 Y79.34 E11.60514
G1 X55.165 Y79.096 E11.61683
G1 X55.867 Y78.475 E11.648
G1 X56.62 Y77.915 E11.67921
G0 F6000 X56.873 Y78.227
G1 F1200 X57.657 Y77.746 E11.70981
G1 X58.481 Y77.334 E11.74045
G1 X59.337 Y76.996 E11.77106
G1 X60.22 Y76.733 E11.8017
G1 X61.121 Y76.548 E11.83229
G1 X62.174 Y76.433 E11.86752
G1 X62.326 Y76.424 E11.87259
G1 X62.823 Y76.406 E11.88913
G1 X63.362 Y76.4 E11.90706
G1 X156.493 Y76.4 E15.00461
G1 X157.345 Y76.411 E15.03295
G1 X158.264 Y76.464 E15.06357
G1 X159.175 Y76.597 E15.09419
G1 X160.071 Y76.808 E15.1248
G1 X160.946 Y77.096 E15.15544
G1 X161.792 Y77.459 E15.18606
G1 X162.603 Y77.894 E15.21667
G1 X163.374 Y78.398 E15.24731
G1 X164.377 Y79.215 E15.29033
G1 X164.53 Y79.356 E15.29725
G1 X164.749 Y79.564 E15.3073
G1 X164.913 Y79.724 E15.31492
G1 X165.106 Y79.917 E15.324
G1 X165.585 Y80.409 E15.34684
G1 X166.198 Y81.096 E15.37746
G1 X166.749 Y81.833 E15.40807
G1 X167.234 Y82.616 E15.4387
G1 X167.649 Y83.437 E15.4693
G1 X167.992 Y84.292 E15.49994
G1 X168.259 Y85.173 E15.53055
G1 X168.448 Y86.074 E15.56117
G1 X168.582 Y87.402 E15.60557
G1 X168.594 Y87.811 E15.61918
G1 X168.6 Y88.362 E15.6375
G1 X168.599 Y131.644 E17.07707
G1 X168.589 Y132.346 E17.10042
G1 X168.536 Y133.265 E17.13104
G1 X168.403 Y134.176 E17.16166
G1 X168.192 Y135.072 E17.19227
G1 X167.904 Y135.947 E17.22291
G1 X167.541 Y136.793 E17.25353
G1 X167.106 Y137.604 E17.28414
G1 X166.602 Y138.375 E17.31478
G1 X165.763 Y139.402 E17.35889
G1 X165.46 Y139.725 E17.37362
G1 X165.3 Y139.89 E17.38126
G1 X165.061 Y140.128 E17.39248
G1 X164.566 Y140.607 E17.41539
G1 X163.877 Y141.218 E17.44602
G1 X163.138 Y141.767 E17.47664
G1 X162.354 Y142.25 E17.50726
G1 X161.531 Y142.662 E17.53788
G1 X160.676 Y143.002 E17.56848
G1 X159.794 Y143.267 E17.59911
G1 X158.892 Y143.453 E17.62974
G1 X157.553 Y143.584 E17.67449
G1 X157.177 Y143.594 E17.687
G1 X156.638 Y143.6 E17.70493
G1 X63.356 Y143.599 E20.8075
G1 X62.653 Y143.589 E20.83088
G1 X61.734 Y143.536 E20.8615
G1 X60.823 Y143.403 E20.89212
G1 X59.927 Y143.192 E20.92274
G1 X59.053 Y142.904 E20.95335
G1 X58.206 Y142.541 E20.984
G1 X57.395 Y142.106 E21.0146
G1 X56.624 Y141.602 E21.04524
G1 X55.57 Y140.737 E21.09059
G1 X55.244 Y140.429 E21.10551
G1 X55.067 Y140.256 E21.11374
G1 X54.863 Y140.052 E21.12334
G1 X54.397 Y139.571 E21.14561
G1 X53.786 Y138.882 E21.17624
G1 X53.236 Y138.143 E21.20688
G1 X52.753 Y137.36 E21.23748
G1 X52.34 Y136.537 E21.2681
G1 X52 Y135.681 E21.29874
G1 X51.735 Y134.8 E21.32934
G1 X51.548 Y133.898 E21.35998
G1 X51.416 Y132.556 E21.40483
G1 X51.41 Y132.38 E21.41068
G1 X51.405 Y132.13 E21.419
G1 X51.4 Y131.638 E21.43537
G1 X51.401 Y88.368 E22.87453
G1 X51.41 Y87.723 E22.89599
G1 X51.463 Y86.804 E22.9266
G1 X51.544 Y86.183 E22.94743
G1 X51.554 Y86.121 E22.94952
G1 X51.74 Y85.219 E22.98015
G1 X52.004 Y84.337 E23.01077
G1 X52.343 Y83.481 E23.0414
G1 X52.755 Y82.658 E23.07201
G1 X53.237 Y81.874 E23.10262
G1 X53.785 Y81.134 E23.13324
G1 X54.373 Y80.468 E23.16279
G1 X54.902 Y79.917 E23.1882
G1 X55.19 Y79.628 E23.20177
G1 X55.443 Y79.384 E23.21346
G1 X56.132 Y78.774 E23.24407
G1 X56.873 Y78.227 E23.2747
G0 F6000 X57.125 Y78.539
G1 F1200 X57.897 Y78.07 E23.30474
G1 X58.707 Y77.672 E23.33476
G1 X59.549 Y77.346 E23.36479
G1 X60.417 Y77.096 E23.39484
G1 X61.304 Y76.924 E23.42489
G1 X62.198 Y76.832 E23.45478
G1 X62.35 Y76.823 E23.45984
G1 X62.828 Y76.806 E23.47575
G1 X63.362 Y76.8 E23.49351
G1 X156.493 Y76.8 E26.59106
G1 X157.339 Y76.811 E26.6192
G1 X158.241 Y76.864 E26.64926
G1 X159.134 Y76.996 E26.67928
G1 X160.013 Y77.207 E26.70935
G1 X160.869 Y77.495 E26.73938
G1 X161.696 Y77.857 E26.76941
G1 X162.488 Y78.291 E26.79945
G1 X163.238 Y78.794 E26.82948
G1 X164.106 Y79.509 E26.86689
G1 X164.259 Y79.65 E26.87381
G1 X164.47 Y79.85 E26.88348
G1 X164.634 Y80.01 E26.8911
G1 X164.819 Y80.196 E26.89982
G1 X165.298 Y80.688 E26.92266
G1 X165.899 Y81.362 E26.9527
G1 X166.438 Y82.087 E26.98274
G1 X166.91 Y82.857 E27.01278
G1 X167.313 Y83.665 E27.04281
G1 X167.642 Y84.506 E27.07285
G1 X167.896 Y85.373 E27.1029
G1 X168.072 Y86.258 E27.13291
G1 X168.183 Y87.417 E27.17164
G1 X168.194 Y87.816 E27.18491
G1 X168.2 Y88.362 E27.20307
G1 X168.199 Y131.638 E28.64244
G1 X168.189 Y132.34 E28.66579
G1 X168.136 Y133.242 E28.69584
G1 X168.004 Y134.135 E28.72587
G1 X167.793 Y135.013 E28.7559
G1 X167.505 Y135.869 E28.78594
G1 X167.143 Y136.697 E28.81599
G1 X166.709 Y137.489 E28.84603
G1 X166.206 Y138.239 E28.87607
G1 X165.47 Y139.13 E28.91451
G1 X165.173 Y139.447 E28.92895
G1 X165.013 Y139.612 E28.9366
G1 X164.783 Y139.841 E28.94739
G1 X164.288 Y140.32 E28.9703
G1 X163.612 Y140.919 E29.00034
G1 X162.885 Y141.455 E29.03039
G1 X162.114 Y141.925 E29.06042
G1 X161.305 Y142.325 E29.09043
G1 X160.463 Y142.652 E29.12048
G1 X159.595 Y142.904 E29.15054
G1 X158.709 Y143.077 E29.18056
G1 X157.539 Y143.184 E29.21964
G1 X157.172 Y143.194 E29.23185
G1 X156.638 Y143.2 E29.24961
G1 X63.362 Y143.199 E32.35199
G1 X62.659 Y143.189 E32.37537
G1 X61.757 Y143.136 E32.40542
G1 X60.864 Y143.004 E32.43545
G1 X59.986 Y142.793 E32.46548
G1 X59.13 Y142.505 E32.49552
G1 X58.303 Y142.143 E32.52555
G1 X57.511 Y141.709 E32.55558
G1 X56.76 Y141.207 E32.58563
G1 X55.843 Y140.445 E32.62528
G1 X55.523 Y140.143 E32.63992
G1 X55.346 Y139.97 E32.64815
G1 X55.15 Y139.773 E32.65739
G1 X54.684 Y139.292 E32.67967
G1 X54.085 Y138.617 E32.70968
G1 X53.548 Y137.89 E32.73975
G1 X53.078 Y137.12 E32.76975
G1 X52.677 Y136.31 E32.79981
G1 X52.35 Y135.469 E32.82982
G1 X52.098 Y134.601 E32.85988
G1 X51.924 Y133.715 E32.88992
G1 X51.816 Y132.543 E32.92906
G1 X51.805 Y132.126 E32.94294
G1 X51.8 Y131.638 E32.95917
G1 X51.801 Y88.374 E34.39813
G1 X51.81 Y87.729 E34.41959
G1 X51.863 Y86.827 E34.44964
G1 X51.939 Y86.247 E34.4691
G1 X51.949 Y86.185 E34.47119
G1 X52.132 Y85.3 E34.50124
G1 X52.393 Y84.436 E34.53126
G1 X52.729 Y83.598 E34.56129
G1 X53.138 Y82.792 E34.59135
G1 X53.616 Y82.026 E34.62139
G1 X54.161 Y81.306 E34.65142
G1 X54.661 Y80.745 E34.67641
G1 X55.19 Y80.194 E34.70182
G1 X55.467 Y79.916 E34.71487
G1 X55.72 Y79.672 E34.72656
G1 X56.397 Y79.075 E34.75658
G1 X57.125 Y78.539 E34.78665
G1 F1500 E30.78665
;MESH:Karadio_base.STL
G0 F6000 X76.585 Y114.545
G0 X75.853 Y113.281
G0 X74.587 Y115.03
G0 X74.296 Y115.652
G0 X74.118 Y116.316
G0 X74.058 Y117
G0 X74.118 Y117.684
G0 X74.296 Y118.348
G0 X74.587 Y118.97
G0 X74.981 Y119.533
G0 X75.467 Y120.019
G0 X76.03 Y120.413
G0 X76.652 Y120.704
G0 X77.316 Y120.882
G0 X77.703 Y120.915
G0 X79.404 Y120.855
;TYPE:WALL-INNER
G1 F1500 E34.78665
G1 F1200 X80.051 Y120.553 E34.8104
G1 X80.637 Y120.143 E34.83419
G1 X81.143 Y119.637 E34.85799
G1 X81.553 Y119.051 E34.88178
G1 X81.855 Y118.404 E34.90552
G1 X82.04 Y117.713 E34.92932
G1 X82.103 Y117 E34.95312
G1 X82.04 Y116.287 E34.97693
G1 X81.855 Y115.596 E35.00072
G1 X81.553 Y114.949 E35.02447
G1 X81.143 Y114.363 E35.04826
G1 X80.637 Y113.857 E35.07206
G1 X80.051 Y113.447 E35.09585
G1 X79.404 Y113.145 E35.11959
G1 X78.713 Y112.96 E35.14339
G1 X78 Y112.897 E35.16719
G1 X77.287 Y112.96 E35.191
G1 X76.596 Y113.145 E35.21479
G1 X75.949 Y113.447 E35.23854
G1 X75.363 Y113.857 E35.26233
G1 X74.857 Y114.363 E35.28613
G1 X74.447 Y114.949 E35.30991
G1 X74.145 Y115.596 E35.33366
G1 X73.96 Y116.287 E35.35746
G1 X73.897 Y117 E35.38126
G1 X73.96 Y117.713 E35.40507
G1 X74.145 Y118.404 E35.42886
G1 X74.447 Y119.051 E35.45261
G1 X74.857 Y119.637 E35.4764
G1 X75.363 Y120.143 E35.5002
G1 X75.949 Y120.553 E35.52398
G1 X76.596 Y120.855 E35.54773
G1 X77.287 Y121.04 E35.57152
G1 X78 Y121.103 E35.59533
G1 X78.713 Y121.04 E35.61914
G1 X79.404 Y120.855 E35.64293
G0 F6000 X79.266 Y120.478
;TYPE:WALL-OUTER
G1 F1200 X79.85 Y120.205 E35.66437
G1 X80.379 Y119.835 E35.68584
G1 X80.835 Y119.379 E35.70729
G1 X81.205 Y118.85 E35.72876
G1 X81.478 Y118.266 E35.7502
G1 X81.645 Y117.643 E35.77166
G1 X81.701 Y117 E35.79312
G1 X81.645 Y116.357 E35.81459
G1 X81.478 Y115.734 E35.83604
G1 X81.205 Y115.15 E35.85749
G1 X80.835 Y114.621 E35.87896
G1 X80.379 Y114.165 E35.90041
G1 X79.85 Y113.795 E35.92188
G1 X79.266 Y113.522 E35.94332
G1 X78.643 Y113.355 E35.96477
G1 X78 Y113.299 E35.98624
G1 X77.357 Y113.355 E36.00771
G1 X76.734 Y113.522 E36.02916
G1 X76.15 Y113.795 E36.0506
G1 X75.621 Y114.165 E36.07207
G1 X75.165 Y114.621 E36.09352
G1 X74.795 Y115.15 E36.11499
G1 X74.522 Y115.734 E36.13643
G1 X74.355 Y116.357 E36.15789
G1 X74.299 Y117 E36.17935
G1 X74.355 Y117.643 E36.20082
G1 X74.522 Y118.266 E36.22227
G1 X74.795 Y118.85 E36.24371
G1 X75.165 Y119.379 E36.26518
G1 X75.621 Y119.835 E36.28663
G1 X76.15 Y120.205 E36.3081
G1 X76.734 Y120.478 E36.32955
G1 X77.357 Y120.645 E36.351
G1 X78 Y120.701 E36.37247
G1 X78.643 Y120.645 E36.39393
G1 X79.266 Y120.478 E36.41539
G0 F6000 X79.416 Y120.891
G1 F1500 E32.41539
G0 F6000 X80.533 Y120.019
G0 X80.926 Y119.626
G0 X82.229 Y117.747
G0 X80.79 Y117.493
G0 X93.724 Y108.221
G0 X93.472 Y109.66
G0 X96.494 Y109.471
;TYPE:WALL-INNER
G1 F1500 E36.41539
G1 F1200 X97.942 Y109.084 E36.46524
G1 X99.301 Y108.45 E36.51511
G1 X100.529 Y107.59 E36.56498
G1 X101.59 Y106.529 E36.61488
G1 X102.45 Y105.301 E36.66475
G1 X103.084 Y103.942 E36.71462
G1 X103.471 Y102.494 E36.76448
G1 X103.603 Y101 E36.81436
G1 X103.471 Y99.506 E36.86424
G1 X103.084 Y98.058 E36.9141
G1 X102.45 Y96.699 E36.96397
G1 X101.59 Y95.471 E37.01384
G1 X100.529 Y94.41 E37.06374
G1 X99.301 Y93.55 E37.11361
G1 X97.942 Y92.916 E37.16348
G1 X96.494 Y92.529 E37.21333
G1 X95 Y92.397 E37.26322
G1 X93.506 Y92.529 E37.3131
G1 X92.058 Y92.916 E37.36295
G1 X90.699 Y93.55 E37.41283
G1 X89.471 Y94.41 E37.46269
G1 X88.41 Y95.471 E37.5126
G1 X87.55 Y96.699 E37.56246
G1 X86.916 Y98.058 E37.61234
G1 X86.529 Y99.506 E37.66219
G1 X86.397 Y101 E37.71208
G1 X86.529 Y102.494 E37.76196
G1 X86.916 Y103.942 E37.81181
G1 X87.55 Y105.301 E37.86169
G1 X88.41 Y106.529 E37.91155
G1 X89.471 Y107.59 E37.96146
G1 X90.699 Y108.45 E38.01132
G1 X92.058 Y109.084 E38.0612
G1 X93.506 Y109.471 E38.11105
G1 X95 Y109.603 E38.16093
G1 X96.494 Y109.471 E38.21082
G0 F6000 X96.424 Y109.076
;TYPE:WALL-OUTER
G1 F1200 X97.805 Y108.707 E38.25836
G1 X99.1 Y108.102 E38.3059
G1 X100.271 Y107.282 E38.35345
G1 X101.282 Y106.271 E38.401
G1 X102.102 Y105.1 E38.44855
G1 X102.707 Y103.805 E38.49609
G1 X103.076 Y102.424 E38.54364
G1 X103.201 Y101 E38.59118
G1 X103.076 Y99.576 E38.63873
G1 X102.707 Y98.195 E38.68627
G1 X102.102 Y96.9 E38.73381
G1 X101.282 Y95.729 E38.78136
G1 X100.271 Y94.718 E38.82891
G1 X99.1 Y93.898 E38.87646
G1 X97.805 Y93.293 E38.924
G1 X96.424 Y92.924 E38.97154
G1 X95 Y92.799 E39.01909
G1 X93.576 Y92.924 E39.06663
G1 X92.195 Y93.293 E39.11418
G1 X90.9 Y93.898 E39.16172
G1 X89.729 Y94.718 E39.20926
G1 X88.718 Y95.729 E39.25682
G1 X87.898 Y96.9 E39.30436
G1 X87.293 Y98.195 E39.35191
G1 X86.924 Y99.576 E39.39945
G1 X86.799 Y101 E39.44699
G1 X86.924 Y102.424 E39.49454
G1 X87.293 Y103.805 E39.54208
G1 X87.898 Y105.1 E39.58962
G1 X88.718 Y106.271 E39.63717
G1 X89.729 Y107.282 E39.68472
G1 X90.9 Y108.102 E39.73227
G1 X92.195 Y108.707 E39.77981
G1 X93.576 Y109.076 E39.82736
G1 X95 Y109.201 E39.8749
G1 X96.424 Y109.076 E39.92244
G0 F6000 X96.5 Y109.509
G1 F1500 E35.92244
G0 F6000 X98.008 Y109.264
G0 X97.511 Y107.89
G0 X114.856 Y118.495
G0 X113.545 Y119.137
G0 X115.446 Y121.644
G0 X117.416 Y124.034
G0 X119.729 Y126.097
G0 X122.331 Y127.781
G0 X124.876 Y128.922
G0 X128.116 Y130.028
;TYPE:WALL-INNER
G1 F1500 E39.92244
G1 F1200 X131.219 Y130.385 E40.02633
G1 X134.34 Y130.266 E40.13021
G1 X137.405 Y129.671 E40.23406
G1 X140.345 Y128.616 E40.33795
G1 X143.089 Y127.124 E40.44183
G1 X145.573 Y125.231 E40.54571
G1 X147.739 Y122.98 E40.64961
G1 X149.536 Y120.426 E40.75347
G1 X150.922 Y117.626 E40.85739
G1 X151.864 Y114.648 E40.96127
G1 X152.341 Y111.562 E41.06513
G1 X152.341 Y108.438 E41.16904
G1 X151.864 Y105.352 E41.2729
G1 X150.922 Y102.374 E41.37678
