;FLAVOR:Marlin
;TIME:6138
;Filament used: 4.71013m
;Layer height: 0.2
;MINX:50.9
;MINY:73.9
;MINZ:0.2
;MAXX:169.1
;MAXY:146.1
;MAXZ:11.8
;Generated with Cura_SteamEngine 4.13.1
M140 S55
M105
M190 S55
M104 S200
M105
M109 S200
M82 ;absolute extrusion mode
; Ender 3 Custom Start G-code
G92 E0 ; Reset Extruder
G28 ; Home all axes
G1 Z2.0 F3000 ; Move Z Axis up little to prevent scratching of Heat Bed
G1 X0.1 Y20 Z0.3 F5000.0 ; Move to start position
G1 X0.1 Y200.0 Z0.3 F1500.0 E15 ; Draw the first line
G1 X0.4 Y200.0 Z0.3 F5000.0 ; Move to side a little
G1 X0.4 Y20 Z0.3 F1500.0 E30 ; Draw the second line
G92 E0 ; Reset Extruder
G1 Z2.0 F3000 ; Move Z Axis up little to prevent scratching of Heat Bed
G1 X5 Y20 Z0.3 F5000.0 ; Move over to prevent blob squish
G92 E0
G92 E0
G1 F1500 E-4
;LAYER_COUNT:59
;LAYER:0
M107
G0 F6000 X55.919 Y76.352 Z0.2
;TYPE:SKIRT
G1 F1500 E0
G1 F1200 X56.764 Y75.777 E0.03399
G1 X56.821 Y75.742 E0.03622
G1 X57.641 Y75.286 E0.06743
G1 X58.153 Y75.045 E0.08625
G1 X58.433 Y74.922 E0.09642
G1 X59.307 Y74.582 E0.12761
G1 X60.028 Y74.363 E0.15267
G1 X60.291 Y74.293 E0.16172
G1 X61.207 Y74.091 E0.19292
G1 X62.265 Y73.956 E0.2284
G1 X62.419 Y73.944 E0.23354
G1 X62.911 Y73.917 E0.24992
G1 X63.392 Y73.904 E0.26593
G1 X63.783 Y73.9 E0.27893
G1 X155.993 Y73.9 E3.34585
G1 X156.855 Y73.911 E3.37452
G1 X157.57 Y73.945 E3.39833
G1 X157.784 Y73.962 E3.40547
G1 X158.715 Y74.076 E3.43667
G1 X159.362 Y74.203 E3.4586
G1 X159.489 Y74.232 E3.46293
G1 X160.393 Y74.48 E3.49411
G1 X161.015 Y74.699 E3.51604
G1 X161.273 Y74.799 E3.52524
G1 X162.133 Y75.175 E3.55646
G1 X162.831 Y75.549 E3.5828
G1 X163.087 Y75.698 E3.59265
G1 X163.877 Y76.204 E3.62386
G1 X164.58 Y76.741 E3.65328
G1 X164.633 Y76.785 E3.65557
G1 X165.329 Y77.415 E3.68679
G1 X165.812 Y77.922 E3.71008
G1 X166.054 Y78.193 E3.72217
G1 X166.648 Y78.919 E3.75337
G1 X167.223 Y79.764 E3.78736
G1 X167.258 Y79.821 E3.78959
G1 X167.714 Y80.641 E3.82079
G1 X167.943 Y81.126 E3.83863
G1 X168.066 Y81.404 E3.84874
G1 X168.409 Y82.277 E3.87994
G1 X168.642 Y83.046 E3.90666
G1 X168.712 Y83.311 E3.91578
G1 X168.913 Y84.227 E3.94697
G1 X169.044 Y85.265 E3.98177
G1 X169.056 Y85.419 E3.98691
G1 X169.083 Y85.909 E4.00323
G1 X169.096 Y86.392 E4.0193
G1 X169.1 Y86.783 E4.03231
G1 X169.099 Y133.167 E5.57504
G1 X169.087 Y133.926 E5.60029
G1 X169.016 Y135.011 E5.63646
G1 X168.991 Y135.228 E5.64372
G1 X168.844 Y136.154 E5.67491
G1 X168.715 Y136.713 E5.69399
G1 X168.698 Y136.779 E5.69625
G1 X168.302 Y138.012 E5.73933
G1 X168.2 Y138.275 E5.74871
G1 X167.824 Y139.135 E5.77993
G1 X167.46 Y139.815 E5.80558
G1 X167.311 Y140.072 E5.81546
G1 X166.807 Y140.863 E5.84666
G1 X166.301 Y141.53 E5.8745
G1 X166.26 Y141.58 E5.87665
G1 X165.635 Y142.279 E5.90784
G1 X165.069 Y142.82 E5.93388
G1 X164.795 Y143.064 E5.94608
G1 X164.069 Y143.657 E5.97726
G1 X163.236 Y144.223 E6.01076
G1 X163.179 Y144.258 E6.01298
G1 X162.359 Y144.714 E6.04419
G1 X161.847 Y144.955 E6.06301
G1 X161.567 Y145.078 E6.07318
G1 X160.693 Y145.418 E6.10437
G1 X159.972 Y145.637 E6.12944
G1 X159.709 Y145.707 E6.13849
G1 X158.793 Y145.909 E6.16969
G1 X157.735 Y146.044 E6.20516
G1 X157.581 Y146.056 E6.2103
G1 X157.089 Y146.083 E6.22669
G1 X156.608 Y146.096 E6.24269
G1 X156.217 Y146.1 E6.2557
G1 X63.851 Y146.099 E9.3278
G1 X63.146 Y146.089 E9.35125
G1 X62.435 Y146.056 E9.37493
G1 X62.22 Y146.039 E9.3821
G1 X61.289 Y145.925 E9.4133
G1 X60.638 Y145.797 E9.43536
G1 X60.511 Y145.768 E9.4397
G1 X59.607 Y145.52 E9.47087
G1 X58.977 Y145.298 E9.49309
G1 X58.717 Y145.197 E9.50237
G1 X57.858 Y144.82 E9.53357
G1 X57.162 Y144.447 E9.55983
G1 X56.908 Y144.299 E9.56961
G1 X56.119 Y143.793 E9.60079
G1 X55.42 Y143.259 E9.63004
G1 X55.367 Y143.215 E9.63233
G1 X54.671 Y142.585 E9.66356
G1 X54.188 Y142.078 E9.68685
G1 X53.946 Y141.807 E9.69893
G1 X53.352 Y141.081 E9.73013
G1 X52.777 Y140.236 E9.76413
G1 X52.742 Y140.179 E9.76635
G1 X52.286 Y139.359 E9.79756
G1 X52.052 Y138.864 E9.81577
G1 X51.928 Y138.583 E9.82598
G1 X51.587 Y137.71 E9.85716
G1 X51.355 Y136.943 E9.88381
G1 X51.286 Y136.681 E9.89282
G1 X51.086 Y135.765 E9.924
G1 X50.952 Y134.672 E9.96063
G1 X50.939 Y134.492 E9.96663
G1 X50.916 Y134.056 E9.98115
G1 X50.904 Y133.608 E9.99606
G1 X50.9 Y133.218 E10.00903
G1 X50.901 Y86.828 E11.55197
G1 X50.911 Y86.138 E11.57492
G1 X50.946 Y85.409 E11.5992
G1 X50.963 Y85.199 E11.6062
G1 X51.078 Y84.269 E11.63737
G1 X51.203 Y83.638 E11.65877
G1 X51.232 Y83.511 E11.6631
G1 X51.48 Y82.607 E11.69428
G1 X51.702 Y81.977 E11.71649
G1 X51.803 Y81.717 E11.72577
G1 X52.18 Y80.858 E11.75697
G1 X52.553 Y80.162 E11.78324
G1 X52.701 Y79.908 E11.79301
G1 X53.207 Y79.119 E11.82419
G1 X53.741 Y78.42 E11.85344
G1 X53.785 Y78.367 E11.85574
G1 X54.415 Y77.671 E11.88696
G1 X54.922 Y77.188 E11.91025
G1 X55.193 Y76.946 E11.92233
G1 X55.919 Y76.352 E11.95353
G0 F6000 X56.172 Y76.662
G1 F1200 X56.973 Y76.118 E11.98574
G1 X57.03 Y76.083 E11.98796
G1 X57.835 Y75.636 E12.01859
G1 X58.314 Y75.411 E12.03619
G1 X58.594 Y75.288 E12.04636
G1 X59.452 Y74.955 E12.07697
G1 X60.131 Y74.75 E12.10056
G1 X60.394 Y74.68 E12.10961
G1 X61.293 Y74.482 E12.14023
G1 X62.297 Y74.355 E12.17389
G1 X62.451 Y74.343 E12.17903
G1 X62.924 Y74.317 E12.19479
G1 X63.397 Y74.304 E12.21052
G1 X63.783 Y74.3 E12.22336
G1 X155.993 Y74.3 E15.29028
G1 X156.849 Y74.311 E15.31875
G1 X157.538 Y74.343 E15.34169
G1 X157.752 Y74.36 E15.34883
G1 X158.666 Y74.473 E15.37946
G1 X159.273 Y74.593 E15.40004
G1 X159.4 Y74.622 E15.40438
G1 X160.288 Y74.866 E15.43501
G1 X160.871 Y75.072 E15.45557
G1 X161.129 Y75.172 E15.46478
G1 X161.972 Y75.542 E15.4954
G1 X162.63 Y75.895 E15.52023
G1 X162.886 Y76.044 E15.53008
G1 X163.661 Y76.541 E15.5607
G1 X164.325 Y77.049 E15.58851
G1 X164.378 Y77.093 E15.5908
G1 X165.06 Y77.712 E15.62144
G1 X165.513 Y78.189 E15.64332
G1 X165.755 Y78.46 E15.6554
G1 X166.338 Y79.172 E15.68601
G1 X166.882 Y79.973 E15.71821
G1 X166.917 Y80.03 E15.72044
G1 X167.364 Y80.835 E15.75106
G1 X167.578 Y81.288 E15.76772
G1 X167.701 Y81.566 E15.77784
G1 X168.036 Y82.423 E15.80844
G1 X168.255 Y83.148 E15.83363
G1 X168.325 Y83.413 E15.84275
G1 X168.522 Y84.312 E15.87336
G1 X168.645 Y85.297 E15.90637
G1 X168.657 Y85.451 E15.91151
G1 X168.683 Y85.922 E15.9272
G1 X168.696 Y86.396 E15.94297
G1 X168.7 Y86.783 E15.95584
G1 X168.699 Y133.161 E17.49838
G1 X168.687 Y133.92 E17.52363
G1 X168.618 Y134.965 E17.55846
G1 X168.593 Y135.182 E17.56573
G1 X168.448 Y136.091 E17.59634
G1 X168.328 Y136.613 E17.61416
G1 X168.311 Y136.679 E17.61642
G1 X167.929 Y137.868 E17.65796
G1 X167.827 Y138.131 E17.66734
G1 X167.457 Y138.974 E17.69796
G1 X167.114 Y139.615 E17.72214
G1 X166.965 Y139.872 E17.73202
G1 X166.469 Y140.647 E17.76263
G1 X165.992 Y141.276 E17.78888
G1 X165.951 Y141.326 E17.79103
G1 X165.337 Y142.012 E17.82165
G1 X164.803 Y142.521 E17.84619
G1 X164.529 Y142.765 E17.85839
G1 X163.816 Y143.347 E17.88901
G1 X163.027 Y143.882 E17.92071
G1 X162.97 Y143.917 E17.92294
G1 X162.165 Y144.364 E17.95356
G1 X161.686 Y144.589 E17.97116
G1 X161.406 Y144.712 E17.98134
G1 X160.548 Y145.045 E18.01195
G1 X159.869 Y145.25 E18.03554
G1 X159.606 Y145.32 E18.04459
G1 X158.707 Y145.518 E18.07521
G1 X157.703 Y145.645 E18.10887
G1 X157.549 Y145.657 E18.114
G1 X157.076 Y145.683 E18.12976
G1 X156.603 Y145.696 E18.1455
G1 X156.217 Y145.7 E18.15834
G1 X63.857 Y145.699 E21.23024
G1 X63.152 Y145.689 E21.25369
G1 X62.466 Y145.657 E21.27653
G1 X62.251 Y145.64 E21.28371
G1 X61.338 Y145.528 E21.3143
G1 X60.727 Y145.407 E21.33502
G1 X60.6 Y145.378 E21.33935
G1 X59.712 Y145.134 E21.36998
G1 X59.122 Y144.925 E21.3908
G1 X58.862 Y144.824 E21.40008
G1 X58.019 Y144.453 E21.43071
G1 X57.363 Y144.102 E21.45546
G1 X57.109 Y143.954 E21.46523
G1 X56.335 Y143.456 E21.49584
G1 X55.675 Y142.951 E21.52349
G1 X55.622 Y142.907 E21.52578
G1 X54.94 Y142.288 E21.55641
G1 X54.487 Y141.811 E21.57829
G1 X54.245 Y141.54 E21.59037
G1 X53.662 Y140.828 E21.62098
G1 X53.118 Y140.027 E21.65319
G1 X53.083 Y139.97 E21.65541
G1 X52.636 Y139.165 E21.68604
G1 X52.418 Y138.702 E21.70306
G1 X52.294 Y138.421 E21.71327
G1 X51.959 Y137.564 E21.74388
G1 X51.742 Y136.842 E21.76895
G1 X51.673 Y136.58 E21.77796
G1 X51.477 Y135.68 E21.8086
G1 X51.351 Y134.644 E21.84331
G1 X51.338 Y134.464 E21.84931
G1 X51.316 Y134.043 E21.86333
G1 X51.304 Y133.604 E21.87794
G1 X51.3 Y133.218 E21.89078
G1 X51.301 Y86.833 E23.43355
G1 X51.311 Y86.143 E23.4565
G1 X51.345 Y85.442 E23.47985
G1 X51.362 Y85.232 E23.48685
G1 X51.476 Y84.318 E23.51749
G1 X51.593 Y83.727 E23.53753
G1 X51.622 Y83.6 E23.54186
G1 X51.866 Y82.712 E23.57249
G1 X52.075 Y82.122 E23.59331
G1 X52.176 Y81.862 E23.60258
G1 X52.547 Y81.019 E23.63322
G1 X52.898 Y80.363 E23.65796
G1 X53.046 Y80.109 E23.66774
G1 X53.544 Y79.335 E23.69835
G1 X54.049 Y78.675 E23.72599
G1 X54.093 Y78.622 E23.72828
G1 X54.712 Y77.94 E23.75892
G1 X55.189 Y77.487 E23.7808
G1 X55.46 Y77.245 E23.79288
G1 X56.172 Y76.662 E23.82349
G0 F6000 X56.426 Y76.972
G1 F1200 X57.183 Y76.459 E23.8539
G1 X57.24 Y76.424 E23.85613
G1 X58.029 Y75.986 E23.88614
G1 X58.475 Y75.777 E23.90252
G1 X58.755 Y75.654 E23.9127
G1 X59.597 Y75.328 E23.94273
G1 X60.234 Y75.136 E23.96486
G1 X60.497 Y75.066 E23.97391
G1 X61.379 Y74.873 E24.00394
G1 X62.328 Y74.754 E24.03575
G1 X62.482 Y74.742 E24.04089
G1 X62.937 Y74.717 E24.05604
G1 X63.401 Y74.704 E24.07148
G1 X63.783 Y74.7 E24.08419
G1 X155.993 Y74.7 E27.1511
G1 X156.843 Y74.711 E27.17938
G1 X157.507 Y74.742 E27.20149
G1 X157.721 Y74.759 E27.20863
G1 X158.617 Y74.87 E27.23865
G1 X159.184 Y74.983 E27.25788
G1 X159.311 Y75.012 E27.26222
G1 X160.181 Y75.252 E27.29223
G1 X160.726 Y75.445 E27.31146
G1 X160.984 Y75.545 E27.32067
G1 X161.811 Y75.909 E27.35072
G1 X162.429 Y76.24 E27.37404
G1 X162.685 Y76.389 E27.38389
G1 X163.445 Y76.878 E27.41395
G1 X164.069 Y77.357 E27.44011
G1 X164.122 Y77.401 E27.4424
G1 X164.791 Y78.008 E27.47245
G1 X165.215 Y78.455 E27.49294
G1 X165.457 Y78.726 E27.50502
G1 X166.028 Y79.426 E27.53507
G1 X166.541 Y80.183 E27.56548
G1 X166.576 Y80.24 E27.56771
G1 X167.014 Y81.029 E27.59772
G1 X167.212 Y81.45 E27.6132
G1 X167.335 Y81.728 E27.62331
G1 X167.663 Y82.569 E27.65333
G1 X167.869 Y83.25 E27.67699
G1 X167.939 Y83.515 E27.68611
G1 X168.131 Y84.398 E27.71617
G1 X168.246 Y85.328 E27.74733
G1 X168.258 Y85.482 E27.75247
G1 X168.283 Y85.936 E27.76759
G1 X168.296 Y86.401 E27.78307
G1 X168.3 Y86.783 E27.79577
G1 X168.299 Y133.154 E29.33808
G1 X168.287 Y133.913 E29.36333
G1 X168.221 Y134.919 E29.39686
G1 X168.196 Y135.136 E29.40412
G1 X168.053 Y136.028 E29.43417
G1 X167.941 Y136.513 E29.45072
G1 X167.924 Y136.579 E29.45299
G1 X167.556 Y137.723 E29.49296
G1 X167.454 Y137.986 E29.50234
G1 X167.09 Y138.813 E29.5324
G1 X166.768 Y139.414 E29.55507
G1 X166.619 Y139.671 E29.56495
G1 X166.132 Y140.431 E29.59498
G1 X165.682 Y141.023 E29.61971
G1 X165.641 Y141.073 E29.62186
G1 X165.038 Y141.745 E29.65189
G1 X164.537 Y142.222 E29.6749
G1 X164.263 Y142.466 E29.6871
G1 X163.563 Y143.037 E29.71715
G1 X162.817 Y143.541 E29.74709
G1 X162.76 Y143.576 E29.74931
G1 X161.971 Y144.014 E29.77933
G1 X161.525 Y144.223 E29.79571
G1 X161.245 Y144.346 E29.80588
G1 X160.403 Y144.672 E29.83591
G1 X159.766 Y144.864 E29.85804
G1 X159.503 Y144.934 E29.86709
G1 X158.621 Y145.127 E29.89712
G1 X157.672 Y145.246 E29.92893
G1 X157.518 Y145.258 E29.93407
G1 X157.063 Y145.283 E29.94923
G1 X156.599 Y145.296 E29.96467
G1 X156.217 Y145.3 E29.97737
G1 X63.862 Y145.299 E33.04911
G1 X63.157 Y145.289 E33.07256
G1 X62.498 Y145.258 E33.09451
G1 X62.283 Y145.241 E33.10168
G1 X61.387 Y145.13 E33.13171
G1 X60.816 Y145.017 E33.15107
G1 X60.689 Y144.988 E33.1554
G1 X59.819 Y144.748 E33.18542
G1 X59.267 Y144.552 E33.2049
G1 X59.007 Y144.451 E33.21418
G1 X58.18 Y144.087 E33.24423
G1 X57.565 Y143.756 E33.26746
G1 X57.311 Y143.608 E33.27724
G1 X56.551 Y143.119 E33.3073
G1 X55.931 Y142.643 E33.33329
G1 X55.878 Y142.599 E33.33558
G1 X55.209 Y141.992 E33.36563
G1 X54.785 Y141.545 E33.38612
G1 X54.543 Y141.274 E33.39821
G1 X53.972 Y140.574 E33.42825
G1 X53.459 Y139.817 E33.45867
G1 X53.424 Y139.76 E33.46089
G1 X52.986 Y138.971 E33.49091
G1 X52.784 Y138.541 E33.50671
G1 X52.66 Y138.26 E33.51692
G1 X52.333 Y137.418 E33.54697
G1 X52.128 Y136.74 E33.57052
G1 X52.059 Y136.478 E33.57954
G1 X51.868 Y135.595 E33.60958
G1 X51.749 Y134.615 E33.64242
G1 X51.736 Y134.435 E33.64842
G1 X51.715 Y134.03 E33.66191
G1 X51.704 Y133.599 E33.67625
G1 X51.7 Y133.218 E33.68892
G1 X51.701 Y86.839 E35.23149
G1 X51.711 Y86.149 E35.25444
G1 X51.743 Y85.474 E35.27692
G1 X51.76 Y85.264 E35.28393
G1 X51.873 Y84.368 E35.31397
G1 X51.983 Y83.816 E35.33269
G1 X52.012 Y83.689 E35.33702
G1 X52.252 Y82.819 E35.36704
G1 X52.448 Y82.267 E35.38652
G1 X52.549 Y82.007 E35.3958
G1 X52.913 Y81.18 E35.42585
G1 X53.244 Y80.565 E35.44908
G1 X53.392 Y80.311 E35.45886
G1 X53.881 Y79.551 E35.48891
G1 X54.357 Y78.931 E35.51491
G1 X54.401 Y78.878 E35.5172
G1 X55.008 Y78.209 E35.54725
G1 X55.455 Y77.785 E35.56774
G1 X55.726 Y77.543 E35.57982
G1 X56.426 Y76.972 E35.60987
G1 F1500 E31.60987
;MESH:Karadio_back.STL
G0 F6000 X62.976 Y84.259
G0 X63.323 Y85.32
G0 X156.888 Y85.708
G0 X157.201 Y85.932
G0 X157.329 Y86.343
G0 X157.291 Y128.773
G0 X155.635 Y126.164
G0 X152.819 Y125.951
G0 X150.905 Y127.951
G0 X151.148 Y130.176
G0 X152.451 Y131.687
;TYPE:WALL-INNER
G1 F1500 E35.60987
G1 F1200 X152.924 Y131.907 E35.62722
G1 X153 Y131.932 E35.62988
G1 X153.464 Y132.056 E35.64585
G1 X154 Y132.101 E35.66374
G1 X154.538 Y132.055 E35.6817
G1 X155.04 Y131.919 E35.699
G1 X155.114 Y131.891 E35.70163
G1 X155.535 Y131.694 E35.71709
G1 X155.605 Y131.651 E35.71983
G1 X155.98 Y131.385 E35.73512
G1 X156.04 Y131.332 E35.73778
G1 X156.377 Y130.992 E35.7537
G1 X156.687 Y130.549 E35.77169
G1 X156.907 Y130.076 E35.78904
G1 X156.932 Y129.999 E35.79173
G1 X157.055 Y129.536 E35.80766
G1 X157.099 Y129.018 E35.82495
G1 X157.098 Y128.936 E35.82768
G1 X157.054 Y128.461 E35.84355
G1 X156.919 Y127.96 E35.8608
G1 X156.891 Y127.886 E35.86344
G1 X156.694 Y127.465 E35.8789
G1 X156.651 Y127.395 E35.88163
G1 X156.385 Y127.02 E35.89692
G1 X156.332 Y126.96 E35.89958
G1 X155.992 Y126.623 E35.9155
G1 X155.549 Y126.313 E35.93349
G1 X155.076 Y126.093 E35.95084
G1 X154.999 Y126.068 E35.95353
G1 X154.536 Y125.945 E35.96947
G1 X154.018 Y125.901 E35.98676
G1 X153.936 Y125.902 E35.98948
G1 X153.461 Y125.946 E36.00535
G1 X152.96 Y126.081 E36.02261
G1 X152.886 Y126.109 E36.02524
G1 X152.465 Y126.306 E36.0407
G1 X152.395 Y126.349 E36.04343
G1 X152.02 Y126.615 E36.05872
G1 X151.96 Y126.668 E36.06139
G1 X151.623 Y127.008 E36.07731
G1 X151.313 Y127.451 E36.09529
G1 X151.093 Y127.924 E36.11264
G1 X151.068 Y128 E36.1153
G1 X150.944 Y128.464 E36.13128
G1 X150.899 Y129 E36.14917
G1 X150.945 Y129.538 E36.16713
G1 X151.081 Y130.04 E36.18442
G1 X151.109 Y130.114 E36.18706
G1 X151.306 Y130.535 E36.20252
G1 X151.349 Y130.605 E36.20525
G1 X151.615 Y130.98 E36.22054
G1 X151.668 Y131.04 E36.2232
G1 X152.008 Y131.377 E36.23912
G1 X152.451 Y131.687 E36.25711
G0 F6000 X152.651 Y131.339
;TYPE:WALL-OUTER
G1 F1200 X153.071 Y131.534 E36.27251
G1 X153.114 Y131.548 E36.27401
G1 X153.533 Y131.66 E36.28844
G1 X154 Y131.7 E36.30403
G1 X154.468 Y131.66 E36.31965
G1 X154.916 Y131.538 E36.33509
G1 X154.958 Y131.522 E36.33659
G1 X155.345 Y131.341 E36.3508
G1 X155.384 Y131.317 E36.35232
G1 X155.731 Y131.071 E36.36647
G1 X155.765 Y131.041 E36.36798
G1 X156.069 Y130.735 E36.38232
G1 X156.339 Y130.349 E36.39799
G1 X156.534 Y129.929 E36.41339
G1 X156.548 Y129.886 E36.4149
G1 X156.659 Y129.467 E36.42931
G1 X156.699 Y129.005 E36.44474
G1 X156.698 Y128.959 E36.44627
G1 X156.659 Y128.532 E36.46053
G1 X156.538 Y128.084 E36.47596
